luts/bleach_bypass.cube
TITLE "Bleach Bypass (cool, high contrast)"
LUT_3D_SIZE 17
0.000000 0.000000 0.001268
0.000242 0.000265 0.008971
0.000513 0.000563 0.021874
0.000811 0.000894 0.039611
0.001137 0.001257 0.061811
0.001491 0.001653 0.088106
0.001872 0.002082 0.118127
0.002281 0.002543 0.151506
0.002717 0.003036 0.187873
0.003180 0.003561 0.226859
0.003670 0.004117 0.268097
0.004186 0.004706 0.311217
0.004730 0.005326 0.355850
0.005300 0.005977 0.401628
0.005897 0.006659 0.448181
0.006520 0.007372 0.495142
0.007169 0.008116 0.542140
0.003622 0.012509 0.007033
0.004137 0.013441 0.018942
0.004678 0.014403 0.035757
0.005245 0.015394 0.057108
0.005840 0.016415 0.082626
0.006460 0.017464 0.111943
0.007107 0.018543 0.144691
0.007780 0.019650 0.180499
0.008479 0.020786 0.218999
0.009203 0.021950 0.259823
0.009954 0.023143 0.302602
0.010730 0.024364 0.346967
0.011531 0.025612 0.392548
0.012358 0.026889 0.438978
0.013210 0.028193 0.485888
0.014088 0.029524 0.532908
0.014990 0.030883 0.579669
0.009882 0.038439 0.016200
0.010656 0.039964 0.032078
0.011455 0.041516 0.052566
0.012279 0.043093 0.077294
0.013129 0.044696 0.105893
0.014004 0.046324 0.137994
0.014904 0.047978 0.173229
0.015828 0.049658 0.211229
0.016777 0.051362 0.251625
0.017751 0.053091 0.294048
0.018750 0.054845 0.338130
0.019772 0.056624 0.383501
0.020819 0.058427 0.429794
0.021890 0.060254 0.476638
0.022985 0.062106 0.523665
0.024103 0.063981 0.570507
0.025246 0.065880 0.616794
0.018655 0.076209 0.028578
0.019675 0.078253 0.048188
0.020719 0.080319 0.072111
0.021788 0.082408 0.099977
0.022881 0.084519 0.131419
0.023997 0.086652 0.166067
0.025137 0.088807 0.203552
0.026301 0.090984 0.243505
0.027488 0.093182 0.285559
0.028698 0.095402 0.329344
0.029932 0.097643 0.374490
0.031188 0.099905 0.420630
0.032468 0.102188 0.467395
0.033770 0.104491 0.514416
0.035095 0.106816 0.561323
0.036443 0.109160 0.607749
0.037813 0.111525 0.653324
0.029815 0.124238 0.043978
0.031069 0.126726 0.067081
0.032346 0.129232 0.094201
0.033647 0.131758 0.124968
0.034970 0.134302 0.159014
0.036315 0.136865 0.195970
0.037683 0.139447 0.235467
0.039073 0.142047 0.277137
0.040485 0.144664 0.320610
0.041919 0.147300 0.365518
0.043376 0.149953 0.411491
0.044853 0.152624 0.458162
0.046353 0.155313 0.505162
0.047874 0.158018 0.552121
0.049417 0.160741 0.598670
0.050981 0.163481 0.644442
0.052565 0.166237 0.689066
0.043237 0.180943 0.062206
0.044713 0.183800 0.088565
0.046211 0.186673 0.118644
0.047730 0.189561 0.152074
0.049271 0.192465 0.188486
0.050832 0.195383 0.227513
0.052415 0.198317 0.268784
0.054019 0.201265 0.311931
0.055644 0.204227 0.356586
0.057290 0.207205 0.402379
0.058956 0.210196 0.448942
0.060642 0.213201 0.495906
0.062350 0.216221 0.542902
0.064077 0.219254 0.589561
0.065824 0.222301 0.635515
0.067592 0.225361 0.680395
0.069379 0.228434 0.723831
0.058798 0.244743 0.083073
0.060483 0.247895 0.112449
0.062188 0.251059 0.145249
0.063913 0.254236 0.181104
0.065659 0.257424 0.219645
0.067424 0.260623 0.260504
0.069210 0.263834 0.303311
0.071015 0.267056 0.347699
0.072840 0.270290 0.393297
0.074684 0.273534 0.439738
0.076548 0.276789 0.486652
0.078430 0.280054 0.533671
0.080332 0.283330 0.580425
0.082253 0.286616 0.626547
0.084193 0.289913 0.671667
0.086151 0.293219 0.715416
0.088128 0.296535 0.757426
0.076371 0.314056 0.106387
0.078252 0.317429 0.138543
0.080152 0.320810 0.173826
0.082071 0.324200 0.211868
0.084009 0.327598 0.252300
0.085966 0.331004 0.294753
0.087941 0.334419 0.338858
0.089935 0.337840 0.384248
0.091947 0.341270 0.430552
0.093977 0.344706 0.477402
0.096026 0.348150 0.524429
0.098092 0.351601 0.571265
0.100176 0.355059 0.617540
0.102278 0.358524 0.662886
0.104398 0.361995 0.706934
0.106534 0.365473 0.749316
0.108689 0.368957 0.789662
0.095832 0.387301 0.131957
0.097897 0.390820 0.166654
0.099979 0.394344 0.204182
0.102080 0.397873 0.244173
0.104197 0.401407 0.286258
0.106332 0.404945 0.330067
0.108485 0.408488 0.375233
0.110655 0.412035 0.421387
0.112842 0.415585 0.468158
0.115045 0.419140 0.515180
0.117266 0.422699 0.562083
0.119503 0.426261 0.608497
0.121757 0.429826 0.654055
0.124027 0.433395 0.698388
0.126314 0.436967 0.741127
0.128616 0.440542 0.781902
0.130935 0.444119 0.820345
0.117056 0.462896 0.159592
0.119292 0.466486 0.196593
0.121544 0.470079 0.236128
0.123813 0.473672 0.277830
0.126097 0.477267 0.321329
0.128399 0.480863 0.366257
0.130716 0.484460 0.412245
0.133049 0.488058 0.458925
0.135398 0.491656 0.505926
0.137762 0.495254 0.552881
0.140142 0.498853 0.599421
0.142538 0.502451 0.645177
0.144949 0.506050 0.689780
0.147375 0.509648 0.732861
0.149816 0.513246 0.774052
0.152271 0.516843 0.812983
0.154742 0.520440 0.849287
0.139918 0.539259 0.189101
0.142312 0.542847 0.228167
0.144721 0.546433 0.269471
0.147146 0.550017 0.312646
0.149585 0.553598 0.357322
0.152040 0.557178 0.403131
0.154509 0.560754 0.449704
0.156993 0.564328 0.496671
0.159491 0.567898 0.543664
0.162004 0.571466 0.590315
0.164531 0.575030 0.636254
0.167072 0.578591 0.681113
0.169627 0.582148 0.724523
0.172196 0.585702 0.766115
0.174779 0.589251 0.805520
0.177375 0.592797 0.842369
0.179985 0.596338 0.876295
0.164292 0.614809 0.220292
0.166832 0.618320 0.261185
0.169386 0.621825 0.304021
0.171954 0.625325 0.348431
0.174535 0.628819 0.394046
0.177130 0.632306 0.440498
0.179739 0.635788 0.487416
0.182361 0.639263 0.534434
0.184996 0.642732 0.581181
0.187644 0.646195 0.627289
0.190306 0.649650 0.672390
0.192980 0.653098 0.716114
0.195667 0.656540 0.758093
0.198366 0.659974 0.797957
0.201078 0.663401 0.835339
0.203803 0.666820 0.869868
0.206539 0.670231 0.901177
0.190055 0.687965 0.252974
0.192728 0.691324 0.295457
0.195413 0.694674 0.339587
0.198112 0.698015 0.384994
0.200823 0.701346 0.431310
0.203546 0.704668 0.478166
0.206281 0.707980 0.525193
0.209029 0.711283 0.572022
0.211788 0.714576 0.618286
0.214560 0.717858 0.663614
0.217343 0.721130 0.707638
0.220137 0.724392 0.749989
0.222943 0.727643 0.790298
0.225761 0.730883 0.828198
0.228589 0.734112 0.863318
0.231429 0.737331 0.895289
0.234280 0.740538 0.923745
0.217080 0.757144 0.286957
0.219874 0.760277 0.330792
0.222679 0.763397 0.375977
0.225495 0.766504 0.422143
0.228322 0.769599 0.468922
0.231161 0.772681 0.515944
0.234011 0.775750 0.562842
0.236871 0.778805 0.609246
0.239742 0.781847 0.654787
0.242624 0.784875 0.699097
0.245516 0.787889 0.741806
0.248419 0.790890 0.782546
0.251331 0.793876 0.820949
0.254254 0.796848 0.856645
0.257186 0.799805 0.889265
0.260129 0.802748 0.918441
0.263081 0.805676 0.943804
0.245243 0.820765 0.322049
0.248145 0.823597 0.366997
0.251056 0.826413 0.413000
0.253978 0.829213 0.459687
0.256910 0.831996 0.506691
0.259851 0.834764 0.553642
0.262803 0.837514 0.600172
0.265763 0.840247 0.645912
0.268733 0.842964 0.690493
0.271713 0.845663 0.733547
0.274701 0.848346 0.774704
0.277699 0.851010 0.813596
0.280706 0.853657 0.849853
0.283721 0.856286 0.883108
0.286745 0.858898 0.912991
0.289778 0.861491 0.939133
0.292818 0.864065 0.961166
0.274420 0.877246 0.358059
0.277416 0.879703 0.403883
0.280422 0.882141 0.450465
0.283437 0.884558 0.497435
0.286460 0.886956 0.544426
0.289492 0.889334 0.591068
0.292532 0.891692 0.636993
0.295580 0.894029 0.681831
0.298637 0.896346 0.725214
0.301701 0.898642 0.766774
0.304774 0.900918 0.806140
0.307854 0.903172 0.842945
0.310942 0.905405 0.876820
0.314037 0.907617 0.907395
0.317140 0.909808 0.934303
0.320250 0.911976 0.957173
0.323367 0.914123 0.975639
0.304484 0.925007 0.394796
0.307563 0.927014 0.441258
0.310651 0.928998 0.488181
0.313745 0.930959 0.535197
0.316847 0.932897 0.581937
0.319957 0.934811 0.628032
0.323073 0.936701 0.673113
0.326197 0.938568 0.716811
0.329327 0.940411 0.758759
0.332464 0.942229 0.798586
0.335608 0.944024 0.835924
0.338758 0.945793 0.870404
0.341915 0.947538 0.901658
0.345077 0.949259 0.929316
0.348246 0.950954 0.953010
0.351421 0.952624 0.972371
0.354602 0.954269 0.987031
0.006067 0.000874 0.002615
0.006697 0.001236 0.011593
0.007353 0.001630 0.025684
0.008036 0.002057 0.044520
0.008745 0.002516 0.067731
0.009479 0.003008 0.094949
0.010239 0.003531 0.125806
0.011024 0.004086 0.159931
0.011835 0.004672 0.196957
0.012671 0.005290 0.236515
0.013533 0.005940 0.278236
0.014419 0.006620 0.321751
0.015331 0.007332 0.366691
0.016267 0.008074 0.412687
0.017227 0.008847 0.459371
0.018213 0.009650 0.506374
0.019222 0.010484 0.553327
0.013451 0.015339 0.009411
0.014335 0.016357 0.022525
0.015244 0.017405 0.040456
0.016177 0.018482 0.062836
0.017136 0.019588 0.089295
0.018119 0.020722 0.119465
0.019126 0.021885 0.152976
0.020158 0.023076 0.189461
0.021214 0.024295 0.228550
0.022293 0.025542 0.269874
0.023397 0.026817 0.313065
0.024524 0.028120 0.357754
0.025675 0.029450 0.403571
0.026850 0.030807 0.450149
0.028048 0.032191 0.497118
0.029269 0.033603 0.544110
0.030513 0.035041 0.590756
0.023292 0.043005 0.019553
0.024417 0.044606 0.036565
0.025566 0.046234 0.058099
0.026738 0.047886 0.083784
0.027934 0.049564 0.113253
0.029153 0.051267 0.146136
0.030395 0.052995 0.182065
0.031660 0.054747 0.220671
0.032948 0.056525 0.261584
0.034259 0.058326 0.304437
0.035592 0.060152 0.348860
0.036948 0.062002 0.394485
0.038327 0.063876 0.440942
0.039727 0.065774 0.487864
0.041149 0.067696 0.534881
0.042594 0.069641 0.581623
0.044060 0.071609 0.627724
0.035466 0.082292 0.032849
0.036820 0.084401 0.053522
0.038196 0.086533 0.078420
0.039594 0.088687 0.107174
0.041015 0.090862 0.139414
0.042457 0.093060 0.174773
0.043921 0.095278 0.212881
0.045407 0.097518 0.253370
0.046915 0.099779 0.295870
0.048444 0.102060 0.340013
0.049994 0.104363 0.385431
0.051566 0.106686 0.431754
0.053159 0.109030 0.478613
0.054772 0.111394 0.525640
0.056407 0.113778 0.572466
0.058062 0.116182 0.618722
0.059738 0.118605 0.664039
0.049847 0.131618 0.049109
0.051417 0.134161 0.073205
0.053008 0.136723 0.101229
0.054619 0.139303 0.132813
0.056252 0.141902 0.167587
0.057905 0.144519 0.205184
0.059579 0.147153 0.245233
0.061273 0.149806 0.287367
0.062988 0.152476 0.331216
0.064723 0.155163 0.376412
0.066478 0.157868 0.422586
0.068252 0.160590 0.469369
0.070047 0.163329 0.516392
0.071861 0.166084 0.563286
0.073695 0.168856 0.609684
0.075548 0.171645 0.655215
0.077421 0.174450 0.699511
0.066311 0.189401 0.068142
0.068084 0.192303 0.095423
0.069877 0.195221 0.126335
0.071690 0.198154 0.160511
0.073522 0.201101 0.197581
0.075373 0.204063 0.237177
0.077244 0.207039 0.278930
0.079134 0.210030 0.322471
0.081043 0.213035 0.367431
0.082970 0.216053 0.413441
0.084917 0.219086 0.460133
0.086883 0.222132 0.507139
0.088866 0.225191 0.554088
0.090869 0.228264 0.600612
0.092889 0.231349 0.646343
0.094928 0.234448 0.690911
0.096985 0.237560 0.733948
0.084733 0.254059 0.089757
0.086697 0.257247 0.119984
0.088679 0.260446 0.153547
0.090679 0.263656 0.190076
0.092698 0.266878 0.229205
0.094735 0.270110 0.270562
0.096790 0.273354 0.313780
0.098863 0.276608 0.358490
0.100954 0.279873 0.404323
0.103062 0.283148 0.450911
0.105188 0.286434 0.497883
0.107332 0.289730 0.544872
0.109492 0.293035 0.591509
0.111670 0.296351 0.637425
0.113864 0.299676 0.682252
0.116076 0.303010 0.725619
0.118304 0.306354 0.767159
0.104987 0.324012 0.113761
0.107129 0.327410 0.146697
0.109288 0.330816 0.182672
0.111464 0.334229 0.221318
0.113657 0.337651 0.262266
0.115867 0.341079 0.305148
0.118094 0.344516 0.349593
0.120337 0.347959 0.395234
0.122597 0.351410 0.441702
0.124873 0.354868 0.488628
0.127166 0.358332 0.535643
0.129474 0.361803 0.582379
0.131799 0.365280 0.628466
0.134139 0.368764 0.673536
0.136496 0.372253 0.717219
0.138867 0.375749 0.759148
0.141255 0.379250 0.798953
0.126949 0.397677 0.139965
0.129256 0.401211 0.175371
0.131579 0.404749 0.213521
0.133918 0.408291 0.254045
0.136273 0.411838 0.296576
0.138643 0.415389 0.340743
0.141029 0.418943 0.386178
0.143430 0.422502 0.432512
0.145847 0.426064 0.479377
0.148278 0.429629 0.526404
0.150725 0.433197 0.573223
0.153186 0.436769 0.619467
0.155662 0.440344 0.664766
0.158153 0.443921 0.708752
0.160658 0.447501 0.751055
0.163177 0.451083 0.791307
0.165711 0.454667 0.829139
0.150494 0.473473 0.168177
0.152954 0.477068 0.205816
0.155428 0.480664 0.245902
0.157918 0.484261 0.288067
0.160421 0.487858 0.331941
0.162939 0.491456 0.377156
0.165472 0.495055 0.423342
0.168018 0.498653 0.470132
0.170578 0.502252 0.517156
0.173153 0.505851 0.564046
0.175740 0.509449 0.610432
0.178342 0.513047 0.655946
0.180957 0.516644 0.700219
0.183585 0.520241 0.742882
0.186226 0.523836 0.783567
0.188881 0.527431 0.821904
0.191548 0.531024 0.857526
0.175496 0.549818 0.198206
0.178096 0.553400 0.237839
0.180710 0.556979 0.279624
0.183337 0.560556 0.323191
0.185977 0.564130 0.368171
0.188630 0.567701 0.414196
0.191296 0.571268 0.460896
0.193975 0.574833 0.507903
0.196667 0.578394 0.554848
0.199371 0.581951 0.601363
0.202088 0.585505 0.647077
0.204817 0.589055 0.691624
0.207558 0.592600 0.734633
0.210311 0.596142 0.775736
0.213076 0.599679 0.814565
0.215853 0.603211 0.850749
0.218641 0.606738 0.883922
0.201831 0.625131 0.229860
0.204559 0.628625 0.271251
0.207299 0.632113 0.314496
0.210051 0.635595 0.359227
0.212815 0.639071 0.405076
0.215590 0.642540 0.451672
0.218378 0.646003 0.498648
0.221177 0.649459 0.545634
0.223987 0.652908 0.592262
0.226809 0.656349 0.638164
0.229641 0.659784 0.682969
0.232485 0.663211 0.726310
0.235340 0.666630 0.767817
0.238205 0.670042 0.807122
0.241081 0.673446 0.843856
0.243968 0.676841 0.877651
0.246865 0.680229 0.908136
0.229374 0.697830 0.262949
0.232217 0.701162 0.305859
0.235071 0.704484 0.350327
0.237935 0.707797 0.395984
0.240810 0.711100 0.442463
0.243696 0.714393 0.489393
0.246592 0.717676 0.536406
0.249498 0.720949 0.583134
0.252414 0.724211 0.629208
0.255341 0.727463 0.674258
0.258277 0.730704 0.717916
0.261223 0.733934 0.759813
0.264178 0.737153 0.799581
0.267144 0.740360 0.836850
0.270118 0.743556 0.871252
0.273102 0.746741 0.902417
0.276095 0.749913 0.929978
0.258000 0.766333 0.297281
0.260945 0.769428 0.341472
0.263900 0.772511 0.386925
0.266864 0.775580 0.433271
0.269838 0.778636 0.480141
0.272820 0.781679 0.527167
0.275812 0.784707 0.573981
0.278813 0.787723 0.620212
0.281823 0.790724 0.665493
0.284842 0.793711 0.709454
0.287869 0.796684 0.751727
0.290905 0.799642 0.791942
0.293949 0.802586 0.829732
0.297001 0.805514 0.864727
0.300061 0.808428 0.896559
0.303129 0.811327 0.924858
0.306205 0.814211 0.949256
0.287583 0.829058 0.332666
0.290618 0.831843 0.377900
0.293661 0.834611 0.424099
0.296713 0.837362 0.470895
0.299772 0.840096 0.517920
0.302840 0.842814 0.564805
0.305915 0.845514 0.611180
0.308998 0.848197 0.656676
0.312089 0.850863 0.700926
0.315187 0.853511 0.743560
0.318293 0.856141 0.784210
0.321405 0.858753 0.822506
0.324525 0.861348 0.858080
0.327652 0.863923 0.890563
0.330785 0.866481 0.919587
0.333925 0.869019 0.944781
0.337072 0.871539 0.965779
0.318000 0.884425 0.368912
0.321112 0.886824 0.414950
0.324231 0.889203 0.461659
0.327357 0.891562 0.508668
0.330490 0.893900 0.555609
0.333629 0.896218 0.602113
0.336776 0.898516 0.647812
0.339928 0.900792 0.692336
0.343087 0.903048 0.735317
0.346252 0.905282 0.776386
0.349423 0.907495 0.815175
0.352600 0.909687 0.851314
0.355783 0.911857 0.884434
0.358972 0.914005 0.914167
0.362166 0.916131 0.940144
0.365365 0.918235 0.961997
0.368570 0.920317 0.979355
0.349124 0.930851 0.405828
0.352301 0.932790 0.452433
0.355483 0.934705 0.499412
0.358671 0.936597 0.546396
0.361865 0.938465 0.593015
0.365064 0.940309 0.638902
0.368268 0.942129 0.683686
0.371477 0.943925 0.727000
0.374692 0.945696 0.768475
0.377911 0.947442 0.807741
0.381135 0.949164 0.844430
0.384364 0.950861 0.878174
0.387598 0.952532 0.908602
0.390835 0.954178 0.935348
0.394078 0.955799 0.958041
0.397324 0.957394 0.976313
0.400574 0.958963 0.989795
0.017498 0.002033 0.004274
0.018490 0.002490 0.014507
0.019506 0.002980 0.029764
0.020547 0.003501 0.049678
0.021611 0.004054 0.073880
0.022700 0.004639 0.102000
0.023812 0.005255 0.133671
0.024949 0.005903 0.168522
0.026108 0.006582 0.206187
0.027292 0.007291 0.246294
0.028498 0.008032 0.288477
0.029728 0.008803 0.332365
0.030981 0.009605 0.377591
0.032257 0.010437 0.423785
0.033555 0.011299 0.470579
0.034877 0.012191 0.517603
0.036220 0.013113 0.564490
0.028384 0.018422 0.012085
0.029611 0.019526 0.026383
0.030862 0.020659 0.045410
0.032136 0.021820 0.068797
0.033432 0.023009 0.096175
0.034751 0.024227 0.127177
0.036093 0.025473 0.161431
0.037457 0.026746 0.198571
0.038843 0.028047 0.238228
0.040252 0.029375 0.280031
0.041683 0.030731 0.323613
0.043135 0.032114 0.368605
0.044610 0.033524 0.414638
0.046106 0.034960 0.461342
0.047623 0.036424 0.508351
0.049162 0.037913 0.555293
0.050723 0.039430 0.601802
0.041547 0.047794 0.023184
0.042998 0.049470 0.041310
0.044470 0.051172 0.063868
0.045964 0.052898 0.090491
0.047480 0.054650 0.120808
0.049017 0.056426 0.154452
0.050575 0.058226 0.191054
0.052154 0.060050 0.230244
0.053755 0.061899 0.271654
0.055376 0.063772 0.314915
0.057018 0.065668 0.359659
0.058681 0.067589 0.405516
0.060365 0.069532 0.452118
0.062068 0.071499 0.499095
0.063792 0.073489 0.546080
0.065536 0.075502 0.592703
0.067301 0.077538 0.638596
0.056863 0.088567 0.037382
0.058524 0.090741 0.059097
0.060205 0.092937 0.084949
0.061907 0.095155 0.114569
0.063629 0.097393 0.147588
0.065371 0.099653 0.183636
0.067134 0.101934 0.222346
0.068916 0.104235 0.263349
0.070718 0.106557 0.306275
0.072539 0.108900 0.350756
0.074380 0.111262 0.396423
0.076241 0.113645 0.442908
0.078120 0.116048 0.489840
0.080019 0.118471 0.536853
0.081937 0.120913 0.583576
0.083874 0.123375 0.629642
0.085829 0.125856 0.674680
0.074206 0.139160 0.054486
0.076065 0.141758 0.079553
0.077943 0.144373 0.108461
0.079840 0.147007 0.140840
0.081756 0.149658 0.176322
0.083690 0.152328 0.214537
0.085644 0.155014 0.255118
0.087616 0.157718 0.297695
0.089607 0.160439 0.341899
0.091616 0.163176 0.387362
0.093643 0.165931 0.433715
0.095689 0.168702 0.480589
0.097752 0.171490 0.527615
0.099833 0.174294 0.574424
0.101932 0.177114 0.620648
0.104049 0.179950 0.665918
0.106183 0.182802 0.709865
0.093452 0.197991 0.074306
0.095495 0.200937 0.102488
0.097557 0.203898 0.134213
0.099637 0.206874 0.169113
0.101734 0.209864 0.206820
0.103849 0.212868 0.246964
0.105981 0.215886 0.289178
0.108131 0.218917 0.333091
0.110298 0.221962 0.378335
0.112482 0.225021 0.424542
0.114683 0.228093 0.471342
0.116901 0.231178 0.518368
0.119135 0.234276 0.565249
0.121386 0.237387 0.611617
0.123654 0.240510 0.657104
0.125938 0.243646 0.701340
0.128238 0.246794 0.743957
0.114475 0.263478 0.096651
0.116691 0.266699 0.127708
0.118924 0.269931 0.162013
0.121174 0.273174 0.199197
0.123439 0.276428 0.238891
0.125722 0.279692 0.280726
0.128020 0.282967 0.324334
0.130335 0.286252 0.369346
0.132665 0.289547 0.415392
0.135012 0.292852 0.462105
0.137374 0.296167 0.509115
0.139751 0.299491 0.556054
0.142144 0.302825 0.602552
0.144552 0.306168 0.648242
0.146976 0.309520 0.692753
0.149414 0.312881 0.735718
0.151868 0.316251 0.776767
0.137151 0.334040 0.121330
0.139527 0.337461 0.155025
0.141918 0.340889 0.191671
0.144325 0.344325 0.230900
0.146747 0.347768 0.272343
0.149184 0.351219 0.315632
0.151636 0.354676 0.360396
0.154103 0.358140 0.406268
0.156584 0.361610 0.452879
0.159080 0.365087 0.499860
0.161591 0.368570 0.546842
0.164116 0.372060 0.593456
0.166654 0.375555 0.639334
0.169207 0.379056 0.684106
0.171774 0.382563 0.727404
0.174355 0.386075 0.768859
0.176949 0.389592 0.808103
0.161354 0.408095 0.148150
0.163877 0.411641 0.184245
0.166415 0.415192 0.222995
0.168966 0.418746 0.264032
0.171532 0.422304 0.306987
0.174111 0.425866 0.351490
0.176704 0.429431 0.397173
0.179310 0.433000 0.443668
0.181930 0.436571 0.490605
0.184563 0.440145 0.537616
0.187209 0.443723 0.584331
0.189869 0.447302 0.630383
0.192541 0.450884 0.675402
0.195226 0.454469 0.719019
0.197923 0.458055 0.760866
0.200633 0.461644 0.800574
0.203355 0.465234 0.837774
0.186960 0.484061 0.176922
0.189618 0.487659 0.215179
0.192289 0.491257 0.255795
0.194972 0.494855 0.298401
0.197668 0.498454 0.342629
0.200377 0.502053 0.388109
0.203098 0.505651 0.434473
0.205832 0.509250 0.481353
0.208577 0.512848 0.528378
0.211335 0.516445 0.575181
0.214104 0.520041 0.621392
0.216886 0.523637 0.666644
0.219678 0.527232 0.710566
0.222482 0.530825 0.752790
0.225298 0.534417 0.792948
0.228125 0.538007 0.830671
0.230963 0.541596 0.865589
0.213843 0.560358 0.207454
0.216623 0.563932 0.247635
0.219415 0.567503 0.289879
0.222218 0.571071 0.333817
0.225032 0.574636 0.379080
0.227858 0.578197 0.425299
0.230695 0.581754 0.472106
0.233543 0.585308 0.519132
0.236401 0.588858 0.566008
0.239271 0.592404 0.612365
0.242151 0.595946 0.657834
0.245041 0.599483 0.702047
0.247942 0.603015 0.744634
0.250853 0.606543 0.785228
0.253774 0.610066 0.823459
0.256705 0.613584 0.858958
0.259646 0.617096 0.891356
0.241879 0.635403 0.239555
0.244769 0.638879 0.281422
0.247668 0.642348 0.325056
0.250578 0.645811 0.370087
0.253499 0.649267 0.416147
0.256429 0.652717 0.462868
0.259368 0.656159 0.509880
0.262318 0.659594 0.556814
0.265277 0.663021 0.603302
0.268246 0.666441 0.648976
0.271224 0.669853 0.693465
0.274211 0.673257 0.736401
0.277207 0.676653 0.777416
0.280212 0.680041 0.816141
0.283226 0.683421 0.852207
0.286249 0.686791 0.885244
0.289280 0.690153 0.914885
0.270943 0.707614 0.273033
0.273929 0.710918 0.316349
0.276925 0.714211 0.361134
0.279929 0.717495 0.407021
0.282942 0.720768 0.453641
0.285964 0.724031 0.500625
0.288994 0.727283 0.547604
0.292033 0.730525 0.594209
0.295080 0.733755 0.640071
0.298135 0.736975 0.684823
0.301198 0.740183 0.728094
0.304269 0.743379 0.769516
0.307348 0.746565 0.808720
0.310435 0.749738 0.845338
0.313529 0.752899 0.879001
0.316631 0.756048 0.909339
0.319740 0.759186 0.935985
0.300909 0.775410 0.307699
0.303980 0.778467 0.352224
0.307058 0.781510 0.397923
0.310144 0.784540 0.444428
0.313237 0.787556 0.491370
0.316338 0.790558 0.538378
0.319446 0.793546 0.585086
0.322562 0.796519 0.631124
0.325684 0.799478 0.676123
0.328813 0.802423 0.719715
0.331949 0.805353 0.761530
0.335092 0.808267 0.801200
0.338241 0.811167 0.838356
0.341397 0.814051 0.872629
0.344558 0.816920 0.903651
0.347726 0.819774 0.931052
0.350900 0.822611 0.954464
0.331654 0.837210 0.343359
0.334796 0.839945 0.388857
0.337944 0.842664 0.435232
0.341099 0.845365 0.482117
0.344260 0.848049 0.529142
0.347428 0.850716 0.575938
0.350601 0.853365 0.622137
0.353780 0.855996 0.667369
0.356965 0.858609 0.711267
0.360156 0.861204 0.753461
0.363352 0.863781 0.793582
0.366553 0.866339 0.831262
0.369760 0.868879 0.866131
0.372972 0.871400 0.897822
0.376189 0.873902 0.925964
0.379410 0.876385 0.950190
0.382637 0.878849 0.970131
0.363051 0.891431 0.379824
0.366252 0.893771 0.426056
0.369458 0.896090 0.472870
0.372669 0.898389 0.519896
0.375886 0.900666 0.566766
0.379107 0.902923 0.613112
0.382333 0.905159 0.658564
0.385563 0.907373 0.702753
0.388798 0.909566 0.745311
0.392038 0.911737 0.785869
0.395281 0.913887 0.824059
0.398529 0.916014 0.859510
0.401781 0.918119 0.891855
0.405036 0.920203 0.920725
0.408295 0.922263 0.945751
0.411558 0.924301 0.966564
0.414824 0.926316 0.982795
0.394976 0.936493 0.416903
0.398223 0.938362 0.463631
0.401474 0.940208 0.510644
0.404729 0.942029 0.557574
0.407988 0.943826 0.604052
0.411251 0.945598 0.649709
0.414516 0.947346 0.694176
0.417786 0.949069 0.737084
0.421058 0.950767 0.778065
0.424334 0.952440 0.816750
0.427612 0.954088 0.852769
0.430893 0.955710 0.885754
0.434177 0.957306 0.915337
0.437464 0.958877 0.941148
0.440753 0.960422 0.962819
0.444044 0.961940 0.979981
0.447338 0.963433 0.992265
0.033919 0.003471 0.006241
0.035246 0.004023 0.017707
0.036596 0.004606 0.034110
0.037969 0.005220 0.055081
0.039363 0.005866 0.080252
0.040780 0.006543 0.109253
0.042219 0.007251 0.141717
0.043680 0.007990 0.177274
0.045162 0.008760 0.215555
0.046666 0.009560 0.256192
0.048192 0.010390 0.298815
0.049739 0.011250 0.343056
0.051307 0.012141 0.388547
0.052896 0.013061 0.434918
0.054506 0.014011 0.481800
0.056137 0.014990 0.528825
0.057789 0.015999 0.575624
0.048047 0.021755 0.015049
0.049592 0.022943 0.030510
