luts/bleach_bypass.cube
TITLE "Bleach Bypass (cool, high contrast)"
LUT_3D_SIZE 5
0.000000 0.000000 0.001268
0.001137 0.001257 0.061811
0.002717 0.003036 0.187873
0.004730 0.005326 0.355850
0.007169 0.008116 0.542140
0.029815 0.124238 0.043978
0.034970 0.134302 0.159014
0.040485 0.144664 0.320610
0.046353 0.155313 0.505162
0.052565 0.166237 0.689066
0.095832 0.387301 0.131957
0.104197 0.401407 0.286258
0.112842 0.415585 0.468158
0.121757 0.429826 0.654055
0.130935 0.444119 0.820345
0.190055 0.687965 0.252974
0.200823 0.701346 0.431310
0.211788 0.714576 0.618286
0.222943 0.727643 0.790298
0.234280 0.740538 0.923745
0.304484 0.925007 0.394796
0.316847 0.932897 0.581937
0.329327 0.940411 0.758759
0.341915 0.947538 0.901658
0.354602 0.954269 0.987031
0.054956 0.005186 0.008510
0.061627 0.007948 0.086842
0.068622 0.011202 0.225058
0.075934 0.014935 0.399553
0.083555 0.019138 0.586724
0.134405 0.154715 0.065955
0.143929 0.165625 0.194253
0.153698 0.176801 0.363475
0.163701 0.188232 0.550018
0.173931 0.199908 0.730277
0.238529 0.429036 0.165033
0.250101 0.443326 0.328068
0.261834 0.457658 0.513068
0.273721 0.472021 0.696429
0.285753 0.486404 0.854546
0.359332 0.726923 0.293512
0.372142 0.739828 0.476055
0.385033 0.752550 0.661603
0.397996 0.765078 0.826553
0.411023 0.777402 0.947299
0.488814 0.947154 0.439159
0.502057 0.953906 0.625981
0.515298 0.960252 0.796848
0.528530 0.966180 0.928156
0.541743 0.971679 0.996303
0.177781 0.014716 0.020512
0.188309 0.018893 0.115288
0.199043 0.023529 0.264311
0.209977 0.028614 0.443978
0.221102 0.034138 0.630686
0.290251 0.187592 0.091610
0.302469 0.199255 0.231826
0.314812 0.211153 0.407329
0.327273 0.223275 0.594516
0.339844 0.235611 0.769784
0.415869 0.471224 0.200706
0.428970 0.485607 0.371131
0.442115 0.500000 0.557885
0.455296 0.514393 0.737363
0.468505 0.528776 0.885962
0.546639 0.764389 0.335566
0.559815 0.776725 0.520972
0.572954 0.788847 0.703747
0.586048 0.800745 0.860287
0.599087 0.812408 0.966988
0.674561 0.965862 0.483957
0.687006 0.971386 0.669115
0.699331 0.976471 0.832682
0.711530 0.981107 0.951054
0.723593 0.985284 1.000000
0.344533 0.028321 0.036953
0.357240 0.033820 0.146827
0.370037 0.039748 0.305312
0.382915 0.046094 0.488805
0.395866 0.052846 0.673703
0.473410 0.222598 0.120624
0.486644 0.234922 0.271410
0.499886 0.247450 0.451848
0.513128 0.260172 0.638334
0.526361 0.273077 0.807265
0.603909 0.513596 0.238656
0.616862 0.527979 0.415125
0.629742 0.542342 0.602286
0.642540 0.556674 0.776537
0.655248 0.570964 0.914272
0.728032 0.800092 0.378816
0.739897 0.811768 0.565739
0.751607 0.823199 0.744394
0.763154 0.834375 0.891179
0.774530 0.845285 0.982490
0.837781 0.980862 0.528871
0.847750 0.985065 0.711019
0.857483 0.988798 0.865939
0.866971 0.992052 0.970029
0.876207 0.994814 1.000000
0.531267 0.045731 0.057511
0.544476 0.052462 0.181137
0.557657 0.059589 0.347738
0.570803 0.067103 0.533712
0.583905 0.074993 0.715454
0.659938 0.259462 0.152674
0.672510 0.272357 0.312685
0.684973 0.285424 0.496712
0.697319 0.298654 0.681152
0.709539 0.312035 0.842400
0.778704 0.555881 0.278561
0.789832 0.570174 0.459728
0.800769 0.584415 0.645952
0.811508 0.598593 0.813629
0.822039 0.612699 0.939154
0.879567 0.833763 0.422940
0.888443 0.844687 0.610034
0.897047 0.855336 0.783225
0.905371 0.865698 0.918909
0.913405 0.875762 0.993483
0.954529 0.991884 0.573578
0.960346 0.994674 0.751370
0.965809 0.996964 0.896298
0.970911 0.998743 0.984760
0.975642 1.000000 1.000000
