luts/bleach_bypass.cube
TITLE "Bleach Bypass (cool, high contrast)"
LUT_3D_SIZE 9
0.000000 0.000000 0.001268
0.000513 0.000563 0.021874
0.001137 0.001257 0.061811
0.001872 0.002082 0.118127
0.002717 0.003036 0.187873
0.003670 0.004117 0.268097
0.004730 0.005326 0.355850
0.005897 0.006659 0.448181
0.007169 0.008116 0.542140
0.009882 0.038439 0.016200
0.011455 0.041516 0.052566
0.013129 0.044696 0.105893
0.014904 0.047978 0.173229
0.016777 0.051362 0.251625
0.018750 0.054845 0.338130
0.020819 0.058427 0.429794
0.022985 0.062106 0.523665
0.025246 0.065880 0.616794
0.029815 0.124238 0.043978
0.032346 0.129232 0.094201
0.034970 0.134302 0.159014
0.037683 0.139447 0.235467
0.040485 0.144664 0.320610
0.043376 0.149953 0.411491
0.046353 0.155313 0.505162
0.049417 0.160741 0.598670
0.052565 0.166237 0.689066
0.058798 0.244743 0.083073
0.062188 0.251059 0.145249
0.065659 0.257424 0.219645
0.069210 0.263834 0.303311
0.072840 0.270290 0.393297
0.076548 0.276789 0.486652
0.080332 0.283330 0.580425
0.084193 0.289913 0.671667
0.088128 0.296535 0.757426
0.095832 0.387301 0.131957
0.099979 0.394344 0.204182
0.104197 0.401407 0.286258
0.108485 0.408488 0.375233
0.112842 0.415585 0.468158
0.117266 0.422699 0.562083
0.121757 0.429826 0.654055
0.126314 0.436967 0.741127
0.130935 0.444119 0.820345
0.139918 0.539259 0.189101
0.144721 0.546433 0.269471
0.149585 0.553598 0.357322
0.154509 0.560754 0.449704
0.159491 0.567898 0.543664
0.164531 0.575030 0.636254
0.169627 0.582148 0.724523
0.174779 0.589251 0.805520
0.179985 0.596338 0.876295
0.190055 0.687965 0.252974
0.195413 0.694674 0.339587
0.200823 0.701346 0.431310
0.206281 0.707980 0.525193
0.211788 0.714576 0.618286
0.217343 0.721130 0.707638
0.222943 0.727643 0.790298
0.228589 0.734112 0.863318
0.234280 0.740538 0.923745
0.245243 0.820765 0.322049
0.251056 0.826413 0.413000
0.256910 0.831996 0.506691
0.262803 0.837514 0.600172
0.268733 0.842964 0.690493
0.274701 0.848346 0.774704
0.280706 0.853657 0.849853
0.286745 0.858898 0.912991
0.292818 0.864065 0.961166
0.304484 0.925007 0.394796
0.310651 0.928998 0.488181
0.316847 0.932897 0.581937
0.323073 0.936701 0.673113
0.329327 0.940411 0.758759
0.335608 0.944024 0.835924
0.341915 0.947538 0.901658
0.348246 0.950954 0.953010
0.354602 0.954269 0.987031
0.017498 0.002033 0.004274
0.019506 0.002980 0.029764
0.021611 0.004054 0.073880
0.023812 0.005255 0.133671
0.026108 0.006582 0.206187
0.028498 0.008032 0.288477
0.030981 0.009605 0.377591
0.033555 0.011299 0.470579
0.036220 0.013113 0.564490
0.041547 0.047794 0.023184
0.044470 0.051172 0.063868
0.047480 0.054650 0.120808
0.050575 0.058226 0.191054
0.053755 0.061899 0.271654
0.057018 0.065668 0.359659
0.060365 0.069532 0.452118
0.063792 0.073489 0.546080
0.067301 0.077538 0.638596
0.074206 0.139160 0.054486
0.077943 0.144373 0.108461
0.081756 0.149658 0.176322
0.085644 0.155014 0.255118
0.089607 0.160439 0.341899
0.093643 0.165931 0.433715
0.097752 0.171490 0.527615
0.101932 0.177114 0.620648
0.106183 0.182802 0.709865
0.114475 0.263478 0.096651
0.118924 0.269931 0.162013
0.123439 0.276428 0.238891
0.128020 0.282967 0.324334
0.132665 0.289547 0.415392
0.137374 0.296167 0.509115
0.142144 0.302825 0.602552
0.146976 0.309520 0.692753
0.151868 0.316251 0.776767
0.161354 0.408095 0.148150
0.166415 0.415192 0.222995
0.171532 0.422304 0.306987
0.176704 0.429431 0.397173
0.181930 0.436571 0.490605
0.187209 0.443723 0.584331
0.192541 0.450884 0.675402
0.197923 0.458055 0.760866
0.203355 0.465234 0.837774
0.213843 0.560358 0.207454
0.219415 0.567503 0.289879
0.225032 0.574636 0.379080
0.230695 0.581754 0.472106
0.236401 0.588858 0.566008
0.242151 0.595946 0.657834
0.247942 0.603015 0.744634
0.253774 0.610066 0.823459
0.259646 0.617096 0.891356
0.270943 0.707614 0.273033
0.276925 0.714211 0.361134
0.282942 0.720768 0.453641
0.288994 0.727283 0.547604
0.295080 0.733755 0.640071
0.301198 0.740183 0.728094
0.307348 0.746565 0.808720
0.313529 0.752899 0.879001
0.319740 0.759186 0.935985
0.331654 0.837210 0.343359
0.337944 0.842664 0.435232
0.344260 0.848049 0.529142
0.350601 0.853365 0.622137
0.356965 0.858609 0.711267
0.363352 0.863781 0.793582
0.369760 0.868879 0.866131
0.376189 0.873902 0.925964
0.382637 0.878849 0.970131
0.394976 0.936493 0.416903
0.401474 0.940208 0.510644
0.407988 0.943826 0.604052
0.414516 0.947346 0.694176
0.421058 0.950767 0.778065
0.427612 0.954088 0.852769
0.434177 0.957306 0.915337
0.440753 0.960422 0.962819
0.447338 0.963433 0.992265
0.054956 0.005186 0.008510
0.058250 0.006505 0.038716
0.061627 0.007948 0.086842
0.065084 0.009514 0.149940
0.068622 0.011202 0.225058
0.072239 0.013009 0.309246
0.075934 0.014935 0.399553
0.079707 0.016978 0.493029
0.083555 0.019138 0.586724
0.091096 0.058025 0.031264
0.095159 0.061693 0.076097
0.099295 0.065457 0.136483
0.103501 0.069316 0.209469
0.107777 0.073267 0.292105
0.112123 0.077311 0.381442
0.116536 0.081445 0.474528
0.121016 0.085669 0.568413
0.125562 0.089981 0.660147
0.134405 0.154715 0.065955
0.139136 0.160136 0.123513
0.143929 0.165625 0.194253
0.148784 0.171180 0.275224
0.153698 0.176801 0.363475
0.158670 0.182485 0.456057
0.163701 0.188232 0.550018
0.168788 0.194040 0.642408
0.173931 0.199908 0.730277
0.183882 0.282603 0.111054
0.189181 0.289181 0.179434
0.194531 0.295799 0.258625
0.199932 0.302455 0.345677
0.205383 0.309148 0.437640
0.210882 0.315878 0.531562
0.216429 0.322641 0.624495
0.222022 0.329438 0.713486
0.227661 0.336267 0.795587
0.238529 0.429036 0.165033
0.244294 0.436175 0.242330
0.250101 0.443326 0.328068
0.255948 0.450487 0.419298
0.261834 0.457658 0.513068
0.267759 0.464836 0.606429
0.273721 0.472021 0.696429
0.279719 0.479210 0.780118
0.285753 0.486404 0.854546
0.297346 0.581360 0.226362
0.303476 0.588465 0.310673
0.309638 0.595553 0.401055
0.315829 0.602624 0.494558
0.322051 0.609676 0.588233
0.328300 0.616707 0.679127
0.334576 0.623717 0.764291
0.340879 0.630704 0.840775
0.347207 0.637667 0.905627
0.359332 0.726923 0.293512
0.365727 0.733398 0.382933
0.372142 0.739828 0.476055
0.378578 0.746212 0.569929
0.385033 0.752550 0.661603
0.391506 0.758839 0.748128
0.397996 0.765078 0.826553
0.404502 0.771266 0.893926
0.411023 0.777402 0.947299
0.423488 0.853072 0.364954
0.430046 0.858321 0.457581
0.436615 0.863496 0.551540
0.443194 0.868599 0.643881
0.449782 0.873626 0.731652
0.456378 0.878577 0.811903
0.462980 0.883450 0.881684
0.469589 0.888244 0.938045
0.476202 0.892957 0.978034
0.488814 0.947154 0.439159
0.495435 0.950580 0.533089
0.502057 0.953906 0.625981
0.508678 0.957131 0.714884
0.515298 0.960252 0.796848
0.521915 0.963269 0.868922
0.528530 0.966180 0.928156
0.535139 0.968983 0.971600
0.541743 0.971679 0.996303
0.109381 0.009424 0.013937
0.113752 0.011105 0.048689
0.118190 0.012906 0.100659
0.122695 0.014825 0.166894
0.127265 0.016862 0.244446
0.131899 0.019015 0.330363
0.136597 0.021283 0.421695
0.141358 0.023664 0.515492
0.146180 0.026157 0.608803
0.155535 0.069099 0.040398
0.160530 0.073046 0.089213
0.165581 0.077085 0.152875
0.170689 0.081214 0.228434
0.175852 0.085433 0.312938
0.181070 0.089739 0.403438
0.186340 0.094133 0.496983
0.191663 0.098612 0.590623
0.197037 0.103175 0.681406
0.207417 0.170871 0.078343
0.212934 0.176488 0.139317
0.218498 0.182168 0.212768
0.224108 0.187912 0.295745
0.229764 0.193717 0.385299
0.235463 0.199581 0.478478
0.241205 0.205505 0.572332
0.246990 0.211485 0.663911
0.252815 0.217522 0.750264
0.264027 0.302085 0.126241
0.269966 0.308777 0.197471
0.275941 0.315504 0.278807
0.281953 0.322266 0.367300
0.287999 0.329061 0.459998
0.294080 0.335888 0.553953
0.300193 0.342745 0.646212
0.306338 0.349632 0.733827
0.312514 0.356547 0.813845
0.324365 0.450090 0.182565
0.330625 0.457260 0.262146
0.336911 0.464438 0.349463
0.343223 0.471623 0.441568
0.349560 0.478812 0.535508
0.355920 0.486005 0.628335
0.362303 0.493201 0.717096
0.368708 0.500399 0.798842
0.375133 0.507596 0.870622
0.387432 0.602233 0.245784
0.393912 0.609286 0.331812
0.400408 0.616318 0.423208
0.406919 0.623329 0.517021
0.413445 0.630318 0.610299
0.419985 0.637282 0.700094
0.426537 0.644221 0.783453
0.433100 0.651132 0.857427
0.439674 0.658016 0.919066
0.452228 0.745860 0.314369
0.458826 0.752200 0.404942
0.465431 0.758491 0.498512
0.472041 0.764734 0.592129
0.478656 0.770925 0.682842
0.485274 0.777064 0.767701
0.491894 0.783149 0.843755
0.498515 0.789180 0.908054
0.505136 0.795154 0.957647
0.517753 0.868318 0.386792
0.524369 0.873349 0.480006
0.530982 0.878304 0.573847
0.537590 0.883182 0.665364
0.544192 0.887980 0.751608
0.550787 0.892698 0.829627
0.557374 0.897335 0.896472
0.563952 0.901889 0.949192
0.570520 0.906358 0.984836
0.583007 0.956955 0.461524
0.589541 0.960082 0.555474
0.596060 0.963104 0.647682
0.602565 0.966021 0.735196
0.609053 0.968831 0.815067
0.615525 0.971533 0.884343
0.621978 0.974124 0.940075
0.628412 0.976605 0.979312
0.634826 0.978974 0.999104
0.177781 0.014716 0.020512
0.183019 0.016746 0.059644
0.188309 0.018893 0.115288
0.193651 0.021154 0.184494
0.199043 0.023529 0.264311
0.204486 0.026016 0.351790
0.209977 0.028614 0.443978
0.215516 0.031322 0.537927
0.221102 0.034138 0.630686
0.231873 0.080983 0.050547
0.237588 0.085197 0.103176
0.243346 0.089499 0.169946
0.249146 0.093887 0.247909
0.254986 0.098361 0.334113
0.260866 0.102920 0.425608
0.266785 0.107561 0.519444
0.272741 0.112284 0.612670
0.278733 0.117086 0.702335
0.290251 0.187592 0.091610
0.296344 0.193393 0.155832
0.302469 0.199255 0.231826
0.308625 0.205175 0.316641
0.314812 0.211153 0.407329
0.321029 0.217186 0.500937
0.327273 0.223275 0.594516
0.333546 0.229417 0.685115
0.339844 0.235611 0.769784
0.351917 0.321890 0.142173
0.358285 0.328683 0.216084
0.364677 0.335509 0.299397
0.371089 0.342365 0.389162
0.377522 0.349250 0.482429
0.383974 0.356163 0.576247
0.390444 0.363103 0.667665
0.396931 0.370069 0.753734
0.403434 0.377058 0.831503
0.415869 0.471224 0.200706
0.422414 0.478414 0.282402
0.428970 0.485607 0.371131
0.435538 0.492803 0.463942
0.442115 0.500000 0.557885
0.448702 0.507197 0.650009
0.455296 0.514393 0.737363
0.461898 0.521586 0.816998
0.468505 0.528776 0.885962
0.481110 0.622942 0.265680
0.487729 0.629931 0.353258
0.494350 0.636897 0.445499
0.500971 0.643837 0.539452
0.507593 0.650750 0.632167
0.514213 0.657635 0.720693
0.520831 0.664491 0.802080
0.527445 0.671317 0.873377
0.534056 0.678110 0.931634
0.546639 0.764389 0.335566
0.553231 0.770583 0.427123
0.559815 0.776725 0.520972
0.566390 0.782814 0.614164
0.572954 0.788847 0.703747
0.579507 0.794825 0.786771
0.586048 0.800745 0.860287
0.592575 0.806607 0.921342
0.599087 0.812408 0.966988
0.611456 0.882914 0.408835
0.617921 0.887716 0.502466
0.624367 0.892439 0.596020
0.630794 0.897080 0.686547
0.637200 0.901639 0.771095
0.643585 0.906113 0.846714
0.649947 0.910501 0.910454
0.656286 0.914803 0.959365
0.662600 0.919017 0.990496
0.674561 0.965862 0.483957
0.680798 0.968678 0.577760
0.687006 0.971386 0.669115
0.693184 0.973984 0.755073
0.699331 0.976471 0.832682
0.705447 0.978846 0.898992
0.711530 0.981107 0.951054
0.717579 0.983254 0.985916
0.723593 0.985284 1.000000
0.257163 0.021026 0.028198
0.263057 0.023395 0.071541
0.268990 0.025876 0.130691
0.274959 0.028467 0.202699
0.280965 0.031169 0.284613
0.287006 0.033979 0.373484
0.293081 0.036896 0.466362
0.299189 0.039918 0.560294
0.305328 0.043045 0.652332
0.317115 0.093642 0.061671
0.323342 0.098111 0.117944
0.329597 0.102665 0.187655
0.335879 0.107302 0.267854
0.342187 0.112020 0.355590
0.348519 0.116818 0.447912
0.354876 0.121696 0.541870
0.361255 0.126651 0.634514
0.367657 0.131682 0.722893
0.379913 0.204846 0.105718
0.386372 0.210820 0.173018
0.392848 0.216851 0.251386
0.399342 0.222936 0.337872
0.405851 0.229075 0.429525
0.412374 0.235266 0.523395
0.418912 0.241509 0.616530
0.425462 0.247800 0.705981
0.432024 0.254140 0.788798
0.444557 0.341984 0.158809
0.451147 0.348868 0.235233
0.457744 0.355779 0.320355
0.464348 0.362718 0.411224
0.470957 0.369682 0.504891
0.477571 0.376671 0.598404
0.484188 0.383682 0.688813
0.490808 0.390714 0.773168
0.497429 0.397767 0.848519
0.510048 0.492404 0.219416
0.516668 0.499601 0.303060
0.523285 0.506799 0.393032
0.529898 0.513995 0.486381
0.536507 0.521188 0.580158
0.543110 0.528377 0.671411
0.549706 0.535562 0.757190
0.556295 0.542740 0.834545
0.562874 0.549910 0.900526
0.575386 0.643453 0.286010
0.581935 0.650368 0.374970
0.588470 0.657255 0.467888
0.594992 0.664112 0.561814
0.601499 0.670939 0.653796
0.607991 0.677734 0.740886
0.614465 0.684496 0.820131
0.620921 0.691223 0.888583
0.627359 0.697915 0.943290
0.639571 0.782478 0.357062
0.645948 0.788515 0.449434
0.652301 0.794495 0.543394
0.658631 0.800419 0.635992
0.664935 0.806283 0.724278
0.671214 0.812088 0.805300
0.677465 0.817832 0.876108
0.683689 0.823512 0.933753
0.689883 0.829129 0.975282
0.701603 0.896825 0.431041
0.707707 0.901388 0.524922
0.713778 0.905867 0.618022
0.719814 0.910261 0.707389
0.725815 0.914567 0.790073
0.731780 0.918786 0.863124
0.737708 0.922915 0.923591
0.743597 0.926954 0.968525
0.749447 0.930901 0.994974
0.760483 0.973843 0.506420
0.766213 0.976336 0.599906
0.771900 0.978717 0.690241
0.777542 0.980985 0.774473
0.783139 0.983138 0.849653
0.788689 0.985175 0.912829
0.794192 0.987094 0.961052
0.799646 0.988895 0.991371
0.805051 0.990576 1.000000
0.344533 0.028321 0.036953
0.350875 0.031017 0.084338
0.357240 0.033820 0.146827
0.363627 0.036731 0.221468
0.370037 0.039748 0.305312
0.376466 0.042869 0.395408
0.382915 0.046094 0.488805
0.389382 0.049420 0.582554
0.395866 0.052846 0.673703
0.408269 0.107043 0.073729
0.414798 0.111756 0.133479
0.421340 0.116550 0.205962
0.427895 0.121423 0.288229
0.434460 0.126374 0.377328
0.441036 0.131401 0.470308
0.447621 0.136504 0.564221
0.454215 0.141679 0.656115
0.460815 0.146928 0.743039
0.473410 0.222598 0.120624
0.480025 0.228734 0.190835
0.486644 0.234922 0.271410
0.493264 0.241161 0.359398
0.499886 0.247450 0.451848
0.506507 0.253788 0.545810
0.513128 0.260172 0.638334
0.519746 0.266602 0.726470
0.526361 0.273077 0.807265
0.538957 0.362333 0.176109
0.545557 0.369296 0.254878
0.552151 0.376283 0.341641
0.558736 0.383293 0.433446
0.565313 0.390324 0.527344
0.571879 0.397376 0.620384
0.578434 0.404447 0.709616
0.584976 0.411535 0.792089
0.591506 0.418640 0.864853
0.603909 0.513596 0.238656
0.610394 0.520790 0.324079
0.616862 0.527979 0.415125
0.623311 0.535164 0.508844
0.629742 0.542342 0.602286
0.636151 0.549513 0.692501
0.642540 0.556674 0.776537
0.648906 0.563825 0.851444
0.655248 0.570964 0.914272
0.667267 0.663733 0.306734
0.673536 0.670562 0.396907
0.679777 0.677359 0.490334
0.685990 0.684122 0.584064
0.692173 0.690852 0.675146
0.698326 0.697545 0.760631
0.704446 0.704201 0.837568
0.710535 0.710819 0.903005
0.716590 0.717397 0.953994
0.728032 0.800092 0.378816
0.733983 0.805960 0.471836
0.739897 0.811768 0.565739
0.745772 0.817515 0.657575
0.751607 0.823199 0.744394
0.757401 0.828820 0.823246
0.763154 0.834375 0.891179
0.768864 0.839864 0.945244
0.774530 0.845285 0.982490
0.785203 0.910019 0.453371
0.790736 0.914331 0.547334
0.796221 0.918555 0.639810
0.801657 0.922689 0.727849
0.807043 0.926733 0.808502
0.812379 0.930684 0.878816
0.817662 0.934543 0.935843
0.822892 0.938307 0.976631
0.828069 0.941975 0.998230
0.837781 0.980862 0.528871
0.842794 0.983022 0.621873
0.847750 0.985065 0.711019
0.852647 0.986991 0.793357
0.857483 0.988798 0.865939
0.862258 0.990486 0.925813
0.866971 0.992052 0.970029
0.871621 0.993495 0.995636
0.876207 0.994814 1.000000
0.436898 0.036567 0.046737
0.443478 0.039578 0.097997
0.450066 0.042694 0.163655
0.456662 0.045912 0.240762
0.463265 0.049233 0.326367
0.469873 0.052654 0.417519
0.476487 0.056174 0.511269
0.483103 0.059792 0.604665
0.489723 0.063507 0.694757
0.502342 0.121151 0.086681
0.508963 0.126098 0.149739
0.515583 0.131121 0.224827
0.522200 0.136219 0.308993
0.528814 0.141391 0.399287
0.535424 0.146635 0.492758
0.542028 0.151951 0.586457
0.548625 0.157336 0.677432
0.555215 0.162790 0.762734
0.567749 0.240814 0.136289
0.574312 0.247101 0.209243
0.580862 0.253435 0.291856
0.587400 0.259817 0.381178
0.593924 0.266245 0.474257
0.600434 0.272717 0.568144
0.606928 0.279232 0.659888
0.613405 0.285789 0.746539
0.619864 0.292386 0.825146
0.632122 0.382904 0.194033
0.638524 0.389934 0.274979
0.644904 0.396985 0.363214
0.651261 0.404054 0.455787
0.657595 0.411142 0.549748
0.663904 0.418246 0.642147
0.670187 0.425364 0.730033
0.676442 0.432497 0.810456
0.682670 0.439642 0.880465
0.694459 0.534766 0.258384
0.700600 0.541945 0.345418
0.706709 0.549116 0.437371
0.712785 0.556277 0.531292
0.718827 0.563429 0.624231
0.724834 0.570569 0.713239
0.730805 0.577696 0.795363
0.736738 0.584808 0.867654
0.742634 0.591905 0.927162
0.753761 0.683749 0.327812
0.759540 0.690480 0.419030
0.765277 0.697175 0.512798
0.770971 0.703833 0.606163
0.776620 0.710453 0.696177
0.782224 0.717033 0.779889
0.787782 0.723572 0.854348
0.793293 0.730069 0.916604
0.798756 0.736522 0.963706
0.809028 0.817198 0.400789
0.814345 0.822886 0.494288
0.819608 0.828510 0.587966
0.824819 0.834069 0.678872
0.829975 0.839561 0.764057
0.835076 0.844986 0.840570
0.840120 0.850342 0.905460
0.845107 0.855627 0.955776
0.850035 0.860840 0.988570
0.859261 0.922462 0.475785
0.864014 0.926511 0.569660
0.868704 0.930468 0.661345
0.873330 0.934332 0.747889
0.877892 0.938101 0.826341
0.882388 0.941774 0.893751
0.886817 0.945350 0.947168
0.891179 0.948828 0.983643
0.895472 0.952206 1.000000
0.903460 0.986887 0.551271
0.907548 0.988701 0.643620
0.911563 0.990395 0.731408
0.915504 0.991968 0.811685
0.919371 0.993418 0.881501
0.923161 0.994745 0.937904
0.926875 0.995946 0.977945
0.930511 0.997020 0.998673
0.934068 0.997967 1.000000
0.531267 0.045731 0.057511
0.537874 0.049046 0.112477
0.544476 0.052462 0.181137
0.551071 0.055976 0.260541
0.557657 0.059589 0.347738
0.564235 0.063299 0.439779
0.570803 0.067103 0.533712
0.577360 0.071002 0.626587
0.583905 0.074993 0.715454
0.596341 0.135935 0.100487
0.602844 0.141102 0.166686
0.609332 0.146343 0.244209
0.615803 0.151654 0.330107
0.622255 0.157036 0.421427
0.628689 0.162486 0.515221
0.635102 0.168004 0.608538
0.641494 0.173587 0.698426
0.647864 0.179235 0.781937
0.659938 0.259462 0.152674
0.666237 0.265888 0.228202
0.672510 0.272357 0.312685
0.678756 0.278870 0.403172
0.684973 0.285424 0.496712
0.691161 0.292020 0.590356
0.697319 0.298654 0.681152
0.703445 0.305326 0.766150
0.709539 0.312035 0.842400
0.721059 0.403662 0.212541
0.727053 0.410749 0.295495
0.733010 0.417852 0.385034
0.738930 0.424970 0.478207
0.744811 0.432102 0.572063
0.750653 0.439246 0.663653
0.756454 0.446402 0.750025
0.762214 0.453567 0.828230
0.767931 0.460741 0.895316
0.778704 0.555881 0.278561
0.784292 0.563033 0.367037
0.789832 0.570174 0.459728
0.795325 0.577301 0.553683
0.800769 0.584415 0.645952
0.806164 0.591512 0.733584
0.811508 0.598593 0.813629
0.816799 0.605656 0.883136
0.822039 0.612699 0.939154
0.831874 0.703465 0.349204
0.836953 0.710087 0.441299
0.841976 0.716670 0.535238
0.846942 0.723211 0.628072
0.851848 0.729710 0.716849
0.856694 0.736166 0.798620
0.861480 0.742576 0.870433
0.866203 0.748941 0.929339
0.870864 0.755257 0.972386
0.879567 0.833763 0.422940
0.884039 0.839259 0.516750
0.888443 0.844687 0.610034
0.892780 0.850047 0.699843
0.897047 0.855336 0.783225
0.901245 0.860553 0.857231
0.905371 0.865698 0.918909
0.909425 0.870768 0.965310
0.913405 0.875762 0.993483
0.920786 0.934120 0.498241
0.924548 0.937894 0.591862
0.928233 0.941573 0.682588
0.931840 0.945155 0.767468
0.935368 0.948638 0.843551
0.938815 0.952022 0.907888
0.942181 0.955304 0.957528
0.945465 0.958484 0.989520
0.948665 0.961561 1.000000
0.954529 0.991884 0.573578
0.957481 0.993341 0.665107
0.960346 0.994674 0.751370
0.963122 0.995883 0.829417
0.965809 0.996964 0.896298
0.968406 0.997918 0.949063
0.970911 0.998743 0.984760
0.973323 0.999437 1.000000
0.975642 1.000000 1.000000
