luts/teal_orange.cube
TITLE "Teal & Orange (cinematic)"
LUT_3D_SIZE 17
0.000000 0.000000 0.065415
0.000000 0.000000 0.117383
0.000000 0.000000 0.180744
0.000000 0.000000 0.253205
0.000000 0.000000 0.332472
0.000000 0.000000 0.416255
0.000000 0.000000 0.502262
0.000000 0.000000 0.588203
0.000000 0.000000 0.671791
0.000000 0.000000 0.750735
0.000000 0.000000 0.822750
0.000000 0.000000 0.885547
0.000000 0.000000 0.936840
0.000000 0.000000 0.974344
0.000000 0.000000 0.995773
0.000000 0.000000 1.000000
0.000000 0.000000 1.000000
0.000000 0.009389 0.056516
0.000000 0.009444 0.105864
0.000000 0.009498 0.167059
0.000000 0.009553 0.237810
0.000000 0.009606 0.315830
0.000000 0.009660 0.398830
0.000000 0.009713 0.484524
0.000000 0.009766 0.570625
0.000000 0.009818 0.654846
0.000000 0.009870 0.734902
0.000000 0.009921 0.808508
0.000000 0.009973 0.873379
0.000000 0.010023 0.927230
0.000000 0.010074 0.967778
0.000000 0.010123 0.992740
0.000000 0.010173 1.000000
0.000000 0.010222 1.000000
0.000000 0.038113 0.047983
0.000000 0.038209 0.094570
0.000000 0.038304 0.153468
0.000000 0.038398 0.222393
0.000000 0.038492 0.299058
0.000000 0.038584 0.381179
0.000000 0.038676 0.466470
0.000000 0.038766 0.552646
0.000000 0.038856 0.637425
0.000000 0.038945 0.718521
0.000000 0.039033 0.793653
0.000000 0.039120 0.860536
0.000000 0.039206 0.916888
0.000000 0.039292 0.960426
0.000000 0.039376 0.988869
0.000000 0.039460 0.999934
0.000000 0.039543 1.000000
0.000000 0.083430 0.039956
0.000000 0.083552 0.083643
0.000000 0.083672 0.140118
0.000000 0.083792 0.207096
0.000000 0.083909 0.282295
0.000000 0.084026 0.363430
0.000000 0.084141 0.448219
0.000000 0.084255 0.534378
0.000000 0.084368 0.619625
0.000000 0.084480 0.701678
0.000000 0.084590 0.778255
0.000000 0.084699 0.847073
0.000000 0.084807 0.905853
0.000000 0.084913 0.952311
0.000000 0.085018 0.984167
0.000000 0.085122 0.999141
0.000000 0.085225 1.000000
0.000000 0.142608 0.032517
0.000000 0.142742 0.073173
0.000000 0.142875 0.127100
0.000000 0.143007 0.192013
0.000000 0.143137 0.265632
0.000000 0.143265 0.345674
0.000000 0.143392 0.429856
0.000000 0.143517 0.515899
0.000000 0.143640 0.601519
0.000000 0.143762 0.684437
0.000000 0.143883 0.762370
0.000000 0.144002 0.833039
0.000000 0.144119 0.894162
0.000000 0.144235 0.943459
0.000000 0.144349 0.978650
0.000000 0.144462 0.997454
0.000000 0.144573 1.000000
0.000000 0.212955 0.025731
0.000000 0.213092 0.063230
0.000000 0.213227 0.114486
0.000000 0.213361 0.177217
0.000000 0.213492 0.249143
0.000000 0.213622 0.327982
0.000000 0.213750 0.411453
0.000000 0.213876 0.497276
0.000000 0.214000 0.583170
0.000000 0.214122 0.666855
0.000000 0.214243 0.746050
0.000000 0.214362 0.818476
0.000000 0.214479 0.881852
0.000000 0.214594 0.933898
0.000000 0.214707 0.972335
0.000000 0.214819 0.994883
0.000000 0.214929 1.000000
0.000000 0.291823 0.019651
0.000000 0.291954 0.053870
0.000000 0.292082 0.102336
0.000000 0.292209 0.162770
0.000000 0.292333 0.232890
0.000000 0.292456 0.310417
0.000000 0.292576 0.393070
0.000000 0.292695 0.478568
0.000000 0.292811 0.564634
0.000000 0.292926 0.648985
0.000000 0.293039 0.729343
0.000000 0.293149 0.803428
0.000000 0.293258 0.868961
0.000000 0.293365 0.923661
0.000000 0.293470 0.965249
0.000000 0.293572 0.991445
0.000000 0.293673 1.000000
0.000000 0.376598 0.014324
0.000000 0.376715 0.045144
0.000000 0.376830 0.090705
0.000000 0.376943 0.148727
0.000000 0.377054 0.216930
0.000000 0.377163 0.293035
0.000000 0.377270 0.374762
0.000000 0.377375 0.459831
0.000000 0.377477 0.545963
0.000000 0.377578 0.630878
0.000000 0.377676 0.712297
0.000000 0.377773 0.787939
0.000000 0.377867 0.855527
0.000000 0.377959 0.912779
0.000000 0.378049 0.957418
0.000000 0.378137 0.987163
0.000000 0.378223 0.999734
0.000000 0.464703 0.009791
0.000000 0.464802 0.037096
0.000000 0.464899 0.079638
0.000000 0.464994 0.135137
0.000000 0.465087 0.201314
0.000000 0.465177 0.275889
0.000000 0.465266 0.356583
0.000000 0.465352 0.441116
0.000000 0.465436 0.527209
0.000000 0.465518 0.612583
0.000000 0.465598 0.694957
0.000000 0.465675 0.772053
0.000000 0.465751 0.841591
0.000000 0.465824 0.901291
0.000000 0.465896 0.948875
0.000000 0.465965 0.982062
0.000000 0.466032 0.998573
0.000000 0.553599 0.006084
0.000000 0.553677 0.029764
0.000000 0.553753 0.069178
0.000000 0.553826 0.122046
0.000000 0.553897 0.186089
0.000000 0.553966 0.259027
0.000000 0.554033 0.338582
0.000000 0.554098 0.422473
0.000000 0.554161 0.508422
0.000000 0.554222 0.594148
0.000000 0.554280 0.677372
0.000000 0.554337 0.755814
0.000007 0.554391 0.827196
0.000023 0.554443 0.889236
0.000048 0.554493 0.939655
0.000081 0.554541 0.976174
0.000123 0.554587 0.996512
0.000000 0.640781 0.003234
0.000000 0.640835 0.023183
0.000006 0.640888 0.059362
0.000021 0.640939 0.109494
0.000045 0.640988 0.171298
0.000078 0.641034 0.242495
0.000119 0.641079 0.320806
0.000169 0.641121 0.403950
0.000227 0.641162 0.489649
0.000294 0.641200 0.575621
0.000370 0.641236 0.659588
0.000454 0.641271 0.739269
0.000547 0.641303 0.812385
0.000647 0.641333 0.876654
0.000757 0.641361 0.929798
0.000875 0.641387 0.969534
0.001001 0.641411 0.993584
0.000362 0.723777 0.001267
0.000446 0.723809 0.017382
0.000537 0.723839 0.050226
0.000638 0.723868 0.097520
0.000746 0.723894 0.156983
0.000863 0.723919 0.226337
0.000988 0.723942 0.303300
0.001122 0.723962 0.385594
0.001263 0.723981 0.470938
0.001413 0.723998 0.557051
0.001571 0.724013 0.641653
0.001738 0.724026 0.722464
0.001912 0.724037 0.797203
0.002094 0.724046 0.863590
0.002284 0.724053 0.919343
0.002482 0.724059 0.962181
0.002688 0.724062 0.989824
0.001556 0.800152 0.000202
0.001722 0.800164 0.012387
0.001895 0.800174 0.041799
0.002076 0.800182 0.086157
0.002266 0.800189 0.143182
0.002463 0.800194 0.210593
0.002669 0.800197 0.286109
0.002882 0.800199 0.367450
0.003103 0.800198 0.452336
0.003331 0.800196 0.538485
0.003568 0.800192 0.623616
0.003812 0.800186 0.705448
0.004064 0.800179 0.781699
0.004323 0.800170 0.850089
0.004590 0.800159 0.908335
0.004864 0.800146 0.954156
0.005146 0.800132 0.985269
0.003545 0.867506 0.000000
0.003789 0.867501 0.008218
0.004040 0.867495 0.034106
0.004298 0.867487 0.075437
0.004564 0.867478 0.129929
0.004838 0.867467 0.195302
0.005119 0.867454 0.269274
0.005407 0.867441 0.349563
0.005703 0.867425 0.433890
0.006006 0.867408 0.519971
0.006317 0.867390 0.605525
0.006634 0.867370 0.688269
0.006959 0.867348 0.765922
0.007291 0.867325 0.836201
0.007630 0.867301 0.896822
0.007976 0.867275 0.945504
0.008329 0.867247 0.979962
0.006287 0.923471 0.000000
0.006604 0.923456 0.004893
0.006928 0.923439 0.027172
0.007259 0.923420 0.065387
0.007598 0.923401 0.117258
0.007943 0.923380 0.180501
0.008295 0.923358 0.252835
0.008654 0.923335 0.331978
0.009020 0.923310 0.415647
0.009393 0.923285 0.501559
0.009773 0.923258 0.587431
0.010159 0.923230 0.670980
0.010552 0.923200 0.749923
0.010952 0.923170 0.821976
0.011358 0.923138 0.884854
0.011771 0.923105 0.936274
0.012190 0.923071 0.973951
0.009737 0.965718 0.000000
0.010122 0.965699 0.002422
0.010515 0.965678 0.021013
0.010914 0.965657 0.056033
0.011319 0.965635 0.105198
0.011731 0.965612 0.166226
0.012150 0.965588 0.236834
0.012575 0.965563 0.314737
0.013006 0.965537 0.397653
0.013444 0.965510 0.483298
0.013888 0.965483 0.569386
0.014338 0.965454 0.653634
0.014794 0.965425 0.733757
0.015256 0.965395 0.807469
0.015724 0.965364 0.872485
0.016198 0.965332 0.926519
0.016678 0.965299 0.967285
0.013845 0.991951 0.000000
0.014295 0.991937 0.000811
0.014750 0.991922 0.015644
0.015212 0.991907 0.047394
0.015680 0.991891 0.093777
0.016153 0.991875 0.152510
0.016633 0.991858 0.221308
0.017118 0.991841 0.297885
0.017609 0.991824 0.379958
0.018106 0.991806 0.465239
0.018609 0.991787 0.551445
0.019117 0.991768 0.636287
0.019631 0.991749 0.717481
0.020150 0.991729 0.792738
0.020674 0.991709 0.859772
0.021204 0.991688 0.916295
0.021740 0.991666 0.960020
0.000000 0.000000 0.062747
0.000000 0.000000 0.113950
0.000000 0.000000 0.176680
0.000000 0.000000 0.248644
0.000000 0.000000 0.327551
0.000000 0.000000 0.411110
0.000000 0.000000 0.497033
0.000000 0.000000 0.583029
0.000000 0.000000 0.666811
0.000000 0.000000 0.746093
0.000000 0.000000 0.818586
0.000000 0.000000 0.882004
0.000000 0.000000 0.934063
0.000000 0.000000 0.972476
0.000000 0.000000 0.994959
0.000000 0.000000 1.000000
0.000000 0.000000 1.000000
0.000000 0.009550 0.053933
0.000000 0.009604 0.102475
0.000000 0.009657 0.163001
0.000000 0.009710 0.233221
0.000000 0.009763 0.310850
0.000000 0.009815 0.393600
0.000000 0.009867 0.479184
0.000000 0.009919 0.565316
0.000000 0.009970 0.649712
0.000000 0.010020 0.730086
0.000000 0.010071 0.804152
0.000000 0.010121 0.869629
0.000000 0.010170 0.924230
0.000000 0.010219 0.965674
0.000000 0.010268 0.991676
0.000000 0.010316 1.000000
0.000000 0.010364 1.000000
0.000000 0.038393 0.045540
0.000000 0.038487 0.091279
0.000000 0.038579 0.149470
0.000000 0.038671 0.217829
0.000000 0.038761 0.294070
0.000000 0.038851 0.375908
0.000000 0.038940 0.461061
0.000000 0.039028 0.547242
0.000000 0.039115 0.632170
0.000000 0.039202 0.713560
0.000000 0.039287 0.789129
0.000000 0.039372 0.856596
0.000000 0.039455 0.913678
0.000000 0.039538 0.958092
0.000000 0.039620 0.987557
0.000000 0.039701 0.999792
0.000000 0.039781 1.000000
0.000000 0.083785 0.037680
0.000000 0.083903 0.080480
0.000000 0.084020 0.136210
0.000000 0.084135 0.202587
0.000000 0.084249 0.277328
0.000000 0.084362 0.358149
0.000000 0.084473 0.442769
0.000000 0.084584 0.528903
0.000000 0.084693 0.614272
0.000000 0.084801 0.696592
0.000000 0.084907 0.773581
0.000000 0.085013 0.842959
0.000000 0.085117 0.902444
0.000000 0.085219 0.949755
0.000000 0.085321 0.982612
0.000000 0.085421 0.998733
0.000000 0.085520 1.000000
0.000000 0.143000 0.030429
0.000000 0.143129 0.070160
0.000000 0.143258 0.123305
0.000000 0.143385 0.187582
0.000000 0.143510 0.260709
0.000000 0.143634 0.340405
0.000000 0.143756 0.424387
0.000000 0.143876 0.510375
0.000000 0.143995 0.596088
0.000000 0.144113 0.679244
0.000003 0.144229 0.757562
0.000014 0.144343 0.828763
0.000035 0.144456 0.890566
0.000064 0.144567 0.940690
0.000103 0.144676 0.976855
0.000150 0.144784 0.996781
0.000206 0.144891 1.000000
0.000002 0.213353 0.023848
0.000013 0.213485 0.060384
0.000032 0.213615 0.110823
0.000061 0.213742 0.172884
0.000099 0.213869 0.244284
0.000145 0.213993 0.322744
0.000200 0.214115 0.405984
0.000264 0.214236 0.491721
0.000337 0.214355 0.577677
0.000419 0.214472 0.661571
0.000510 0.214587 0.741122
0.000609 0.214701 0.814052
0.000717 0.214813 0.878079
0.000834 0.214923 0.930924
0.000960 0.215031 0.970308
0.001094 0.215137 0.993951
0.001237 0.215242 1.000000
0.000501 0.292202 0.017987
0.000600 0.292326 0.051208
0.000707 0.292449 0.098823
0.000823 0.292569 0.158551
0.000948 0.292688 0.228113
0.001081 0.292805 0.305228
0.001223 0.292920 0.387617
0.001374 0.293032 0.472999
0.001533 0.293143 0.559095
0.001701 0.293252 0.643625
0.001878 0.293359 0.724309
0.002062 0.293464 0.798868
0.002256 0.293567 0.865022
0.002458 0.293668 0.920492
0.002668 0.293767 0.962997
0.002887 0.293864 0.990259
0.003114 0.293959 0.999999
0.001861 0.376937 0.012892
0.002045 0.377048 0.042679
0.002237 0.377157 0.087354
0.002438 0.377264 0.144638
0.002648 0.377369 0.212250
0.002866 0.377472 0.287911
0.003092 0.377572 0.369343
0.003327 0.377671 0.454264
0.003570 0.377767 0.540395
0.003821 0.377862 0.625457
0.004081 0.377954 0.707171
0.004348 0.378044 0.783257
0.004624 0.378133 0.851435
0.004908 0.378219 0.909426
0.005201 0.378303 0.954951
0.005501 0.378385 0.985730
0.005809 0.378464 0.999484
0.004056 0.464989 0.008601
0.004323 0.465082 0.034840
0.004598 0.465172 0.076463
0.004881 0.465261 0.131191
0.005173 0.465347 0.196745
0.005472 0.465431 0.270845
0.005780 0.465513 0.351211
0.006096 0.465593 0.435565
0.006419 0.465671 0.521626
0.006751 0.465747 0.607115
0.007090 0.465820 0.689753
0.007437 0.465892 0.767261
0.007793 0.465961 0.837358
0.008156 0.466028 0.897765
0.008526 0.466093 0.946203
0.008905 0.466156 0.980392
0.009291 0.466217 0.998053
0.007058 0.553822 0.005146
0.007404 0.553893 0.027728
0.007759 0.553963 0.066191
0.008121 0.554030 0.118256
0.008491 0.554095 0.181645
0.008869 0.554158 0.254077
0.009254 0.554219 0.333272
0.009647 0.554277 0.416953
0.010048 0.554334 0.502838
0.010457 0.554388 0.588648
0.010872 0.554440 0.672104
0.011296 0.554490 0.750926
0.011727 0.554539 0.822834
0.012165 0.554584 0.885549
0.012611 0.554628 0.936790
0.013064 0.554670 0.974277
0.013524 0.554709 0.995731
0.010833 0.640936 0.002557
0.011256 0.640985 0.021376
0.011686 0.641032 0.056574
0.012123 0.641076 0.105873
0.012568 0.641119 0.166991
0.013021 0.641160 0.237651
0.013480 0.641198 0.315572
0.013947 0.641234 0.398474
0.014421 0.641269 0.484078
0.014903 0.641301 0.570103
0.015391 0.641331 0.654270
0.015887 0.641360 0.734299
0.016389 0.641386 0.807908
0.016899 0.641410 0.872819
0.017415 0.641432 0.926750
0.017939 0.641452 0.967421
0.018469 0.641470 0.992552
0.015345 0.723866 0.000855
0.015840 0.723893 0.015812
0.016342 0.723918 0.047645
0.016851 0.723941 0.094077
0.017367 0.723961 0.152825
0.017889 0.723980 0.221612
0.018419 0.723997 0.298155
0.018956 0.724012 0.380176
0.019499 0.724025 0.465394
0.020049 0.724037 0.551529
0.020606 0.724046 0.636300
0.021170 0.724053 0.717426
0.021740 0.724058 0.792626
0.022317 0.724062 0.859620
0.022900 0.724063 0.916126
0.023490 0.724063 0.959864
0.024086 0.724060 0.988551
0.020554 0.800182 0.000061
0.021116 0.800189 0.011060
0.021686 0.800194 0.039434
0.022262 0.800197 0.082902
0.022845 0.800198 0.139183
0.023434 0.800198 0.205998
0.024030 0.800196 0.281065
0.024632 0.800192 0.362104
0.025240 0.800187 0.446834
0.025855 0.800179 0.532973
0.026475 0.800170 0.618241
0.027103 0.800160 0.700356
0.027736 0.800147 0.777036
0.028375 0.800133 0.845999
0.029020 0.800116 0.904964
0.029672 0.800098 0.951647
0.030329 0.800079 0.983768
0.026417 0.867487 0.000000
0.027043 0.867478 0.007141
0.027676 0.867467 0.031965
0.028315 0.867455 0.072378
0.028959 0.867441 0.126100
0.029610 0.867426 0.190849
0.030267 0.867409 0.264344
0.030930 0.867391 0.344303
0.031598 0.867371 0.428444
0.032273 0.867350 0.514485
0.032953 0.867327 0.600144
0.033639 0.867302 0.683139
0.034330 0.867276 0.761187
0.035027 0.867249 0.832005
0.035730 0.867220 0.893310
0.036438 0.867189 0.942819
0.037152 0.867157 0.978247
0.032889 0.923421 0.000000
0.033574 0.923402 0.004069
0.034265 0.923381 0.025259
0.034962 0.923359 0.062533
0.035664 0.923336 0.113608
0.036371 0.923312 0.176201
0.037084 0.923286 0.248031
0.037803 0.923259 0.326815
0.038527 0.923231 0.410270
0.039256 0.923202 0.496112
0.039990 0.923172 0.582059
0.040730 0.923140 0.665827
0.041475 0.923107 0.745133
0.042224 0.923072 0.817690
0.042979 0.923037 0.881217
0.043739 0.923000 0.933427
0.044504 0.922962 0.972036
0.039921 0.965658 0.000000
0.040660 0.965636 0.001853
0.041404 0.965613 0.019334
0.042154 0.965589 0.053389
0.042908 0.965564 0.101735
0.043667 0.965538 0.162089
0.044431 0.965512 0.232167
0.045200 0.965484 0.309685
0.045974 0.965456 0.392360
0.046753 0.965427 0.477906
0.047536 0.965397 0.564040
0.048324 0.965366 0.648475
0.049116 0.965334 0.728927
0.049913 0.965301 0.803111
0.050715 0.965267 0.868739
0.051520 0.965232 0.923526
0.052330 0.965197 0.965185
0.047462 0.991907 0.000000
0.048249 0.991892 0.000498
0.049041 0.991876 0.014201
0.049838 0.991859 0.044967
0.050639 0.991842 0.090509
0.051444 0.991825 0.148546
0.052254 0.991807 0.216790
0.053068 0.991788 0.292957
0.053886 0.991769 0.374762
0.054708 0.991750 0.459918
0.055535 0.991730 0.546139
0.056365 0.991710 0.631139
0.057199 0.991689 0.712630
0.058037 0.991668 0.788325
0.058879 0.991646 0.855936
0.059725 0.991624 0.913175
0.060574 0.991601 0.957753
0.000033 0.000000 0.060093
0.000061 0.000000 0.110520
0.000097 0.000000 0.172609
0.000141 0.000000 0.244067
0.000194 0.000000 0.322605
0.000255 0.000000 0.405933
0.000324 0.000000 0.491764
0.000402 0.000000 0.577809
0.000488 0.000000 0.661781
0.000583 0.000000 0.741394
0.000686 0.000000 0.814361
0.000797 0.000000 0.878398
0.000917 0.000000 0.931218
0.001046 0.000000 0.970537
0.001183 0.000000 0.994071
0.001328 0.000000 1.000000
0.001482 0.000000 1.000000
0.000676 0.009707 0.051388
0.000786 0.009760 0.099111
0.000906 0.009812 0.158956
0.001033 0.009864 0.228636
0.001169 0.009916 0.305864
0.001314 0.009967 0.388354
0.001467 0.010018 0.473820
0.001629 0.010068 0.559976
0.001799 0.010118 0.644539
0.001977 0.010167 0.725223
0.002164 0.010217 0.799745
0.002359 0.010265 0.865821
0.002563 0.010314 0.921167
0.002775 0.010361 0.963501
0.002996 0.010409 0.990539
0.003225 0.010456 1.000000
0.003463 0.010503 1.000000
0.002146 0.038666 0.043144
0.002341 0.038756 0.088023
0.002544 0.038846 0.145496
0.002755 0.038935 0.213278
0.002975 0.039023 0.289085
0.003203 0.039110 0.370632
0.003440 0.039197 0.455637
0.003685 0.039282 0.541815
0.003938 0.039367 0.626883
0.004200 0.039451 0.708559
0.004471 0.039534 0.784560
0.004749 0.039616 0.852604
0.005036 0.039697 0.910408
0.005331 0.039777 0.955692
0.005635 0.039856 0.986173
0.005946 0.039935 0.999570
0.006266 0.040012 1.000000
0.004445 0.084129 0.035458
0.004722 0.084243 0.077359
0.005009 0.084356 0.132333
0.005303 0.084467 0.198099
0.005606 0.084578 0.272371
0.005917 0.084687 0.352870
0.006236 0.084795 0.437311
0.006563 0.084901 0.523413
0.006899 0.085007 0.608893
0.007243 0.085111 0.691472
0.007595 0.085214 0.768866
0.007955 0.085315 0.838796
0.008323 0.085416 0.898979
0.008700 0.085515 0.947135
0.009084 0.085613 0.980984
0.009477 0.085709 0.998245
0.009878 0.085805 1.000000
0.007561 0.143378 0.028400
0.007921 0.143503 0.067194
0.008288 0.143627 0.119548
0.008664 0.143749 0.183178
0.009048 0.143870 0.255804
0.009440 0.143989 0.335144
0.009840 0.144106 0.418916
0.010248 0.144222 0.504841
0.010663 0.144337 0.590636
0.011087 0.144449 0.674022
0.011519 0.144561 0.752717
0.011959 0.144670 0.824442
0.012407 0.144778 0.886916
0.012862 0.144885 0.937859
0.013325 0.144990 0.974990
0.013797 0.145093 0.996031
0.014275 0.145195 1.000000
0.011478 0.213735 0.022028
0.011917 0.213862 0.057592
0.012364 0.213986 0.107203
0.012819 0.214109 0.168582
0.013281 0.214230 0.239448
0.013752 0.214349 0.317520
0.014230 0.214466 0.400518
0.014716 0.214581 0.486161
0.015210 0.214695 0.572169
0.015711 0.214807 0.656262
0.016220 0.214917 0.736161
0.016737 0.215025 0.809586
0.017261 0.215131 0.874255
0.017793 0.215236 0.927891
0.018332 0.215339 0.968214
0.018879 0.215440 0.992943
0.019433 0.215539 1.000000
0.016172 0.292563 0.016391
0.016688 0.292682 0.048603
0.017211 0.292798 0.095356
0.017742 0.292913 0.154369
0.018281 0.293026 0.223363
0.018827 0.293137 0.300058
0.019381 0.293246 0.382173
0.019942 0.293353 0.467429
0.020510 0.293458 0.553547
0.021086 0.293561 0.638246
0.021670 0.293662 0.719247
0.022260 0.293761 0.794270
0.022858 0.293858 0.861037
0.023463 0.293953 0.917267
0.024075 0.294047 0.960681
0.024695 0.294138 0.988999
0.025321 0.294227 0.999943
0.021614 0.377258 0.011531
0.022204 0.377363 0.040275
0.022801 0.377466 0.084054
0.023406 0.377567 0.140590
0.024017 0.377665 0.207601
0.024636 0.377762 0.282810
0.025262 0.377857 0.363936
0.025895 0.377949 0.448699
0.026535 0.378039 0.534821
0.027182 0.378128 0.620021
0.027836 0.378214 0.702020
0.028497 0.378298 0.778540
0.029165 0.378380 0.847300
0.029840 0.378460 0.906020
0.030522 0.378538 0.952423
0.031210 0.378614 0.984227
0.031906 0.378688 0.999154
0.027774 0.465256 0.007485
0.028435 0.465342 0.032648
0.029102 0.465427 0.073343
0.029776 0.465509 0.127291
0.030457 0.465589 0.192212
0.031145 0.465667 0.265827
0.031840 0.465743 0.345857
0.032541 0.465816 0.430021
0.033249 0.465888 0.516041
0.033964 0.465957 0.601637
0.034685 0.466025 0.684529
0.035413 0.466090 0.762439
0.036147 0.466153 0.833085
0.036888 0.466214 0.894190
0.037636 0.466272 0.943473
0.038389 0.466329 0.978654
0.039149 0.466384 0.997454
0.034617 0.554026 0.004285
0.035344 0.554091 0.025759
0.036078 0.554154 0.063262
0.036818 0.554215 0.114516
0.037565 0.554274 0.177240
0.038318 0.554331 0.249156
0.039077 0.554385 0.327984
0.039843 0.554438 0.411444
0.040615 0.554488 0.497256
0.041394 0.554536 0.583141
0.042178 0.554582 0.666820
0.042969 0.554626 0.746012
0.043766 0.554668 0.818437
0.044569 0.554707 0.881816
0.045378 0.554745 0.933869
0.046192 0.554780 0.972315
0.047013 0.554813 0.994874
0.042104 0.641074 0.001957
0.042894 0.641117 0.019638
0.043690 0.641157 0.053847
0.044493 0.641196 0.102303
0.045301 0.641232 0.162728
0.046115 0.641267 0.232841
0.046936 0.641299 0.310363
0.047762 0.641330 0.393014
0.048594 0.641358 0.478514
0.049432 0.641384 0.564583
0.050275 0.641409 0.648940
0.051125 0.641431 0.729306
0.051980 0.641451 0.803401
0.052840 0.641469 0.868942
0.053706 0.641485 0.923651
0.054578 0.641498 0.965246
0.055455 0.641510 0.991446
0.050196 0.723939 0.000524
0.051044 0.723960 0.014314
0.051899 0.723979 0.045128
0.052759 0.723996 0.090689
0.053625 0.724012 0.148714
0.054496 0.724025 0.216924
0.055372 0.724036 0.293039
0.056255 0.724045 0.374779
0.057142 0.724053 0.459862
0.058035 0.724058 0.546009
0.058933 0.724062 0.630939
0.059837 0.724063 0.712370
0.060745 0.724063 0.788022
0.061659 0.724061 0.855613
0.062578 0.724056 0.912862
0.063502 0.724050 0.957488
0.064431 0.724042 0.987209
0.058848 0.800197 0.000002
0.059751 0.800198 0.009808
0.060659 0.800198 0.037135
0.061573 0.800196 0.079704
0.062491 0.800193 0.135234
0.063415 0.800187 0.201445
0.064343 0.800180 0.276054
0.065277 0.800171 0.356782
0.066215 0.800160 0.441347
0.067158 0.800148 0.527468
0.068106 0.800133 0.612863
0.069059 0.800117 0.695251
0.070017 0.800100 0.772349
0.070979 0.800080 0.841876
0.071946 0.800059 0.901549
0.072917 0.800035 0.949085
0.073893 0.800011 0.982202
0.068017 0.867456 0.000000
0.068969 0.867442 0.006139
0.069926 0.867427 0.029891
0.070888 0.867410 0.069380
0.071855 0.867392 0.122324
0.072826 0.867372 0.186441
0.073801 0.867351 0.259450
0.074781 0.867328 0.339069
0.075765 0.867304 0.423016
0.076754 0.867278 0.509009
0.077747 0.867250 0.594765
0.078744 0.867221 0.678001
0.079746 0.867191 0.756434
0.080751 0.867159 0.827781
0.081761 0.867125 0.889759
0.082775 0.867090 0.940083
0.083792 0.867053 0.976470
0.077653 0.923361 0.000000
0.078650 0.923337 0.003320
0.079651 0.923313 0.023416
0.080656 0.923288 0.059741
0.081666 0.923261 0.110013
0.082679 0.923233 0.171949
0.083696 0.923204 0.243267
0.084718 0.923173 0.321684
0.085743 0.923142 0.404916
0.086772 0.923109 0.490681
0.087804 0.923074 0.576694
0.088841 0.923039 0.660671
0.089881 0.923002 0.740329
0.090924 0.922964 0.813382
0.091971 0.922925 0.877545
0.093022 0.922885 0.930534
0.094076 0.922843 0.970064
0.087707 0.965590 0.000000
0.088743 0.965565 0.001360
0.089783 0.965540 0.017725
0.090826 0.965513 0.050809
0.091873 0.965486 0.098330
0.092923 0.965458 0.158002
0.093977 0.965428 0.227543
0.095034 0.965398 0.304669
0.096094 0.965367 0.387094
0.097157 0.965335 0.472534
0.098224 0.965303 0.558703
0.099294 0.965269 0.643317
0.100367 0.965234 0.724090
0.101443 0.965199 0.798734
0.102522 0.965163 0.864964
0.103603 0.965125 0.920494
0.104688 0.965087 0.963034
0.098124 0.991860 0.000000
0.099193 0.991843 0.000262
0.100266 0.991826 0.012830
0.101341 0.991808 0.042604
0.102420 0.991789 0.087301
0.103501 0.991770 0.144634
0.104585 0.991751 0.212319
0.105672 0.991731 0.288069
0.106762 0.991711 0.369599
0.107854 0.991690 0.454621
0.108949 0.991669 0.540850
0.110046 0.991647 0.625998
0.111146 0.991625 0.707777
0.112248 0.991602 0.783900
0.113352 0.991579 0.852077
0.114458 0.991555 0.910021
0.115567 0.991531 0.955441
0.012331 0.000000 0.057465
0.012769 0.000000 0.107104
0.013216 0.000000 0.168539
0.013670 0.000000 0.239481
0.014133 0.000000 0.317641
0.014603 0.000000 0.400730
0.015082 0.000000 0.486462
0.015568 0.000000 0.572549
0.016063 0.000000 0.656705
0.016565 0.000000 0.736644
0.017076 0.000000 0.810080
0.017594 0.000000 0.874729
0.018120 0.000000 0.928306
0.018654 0.000000 0.968527
0.019196 0.000000 0.993108
0.019746 0.000001 1.000000
0.020304 0.000001 1.000000
0.017027 0.009861 0.048884
0.017545 0.009913 0.095776
0.018070 0.009964 0.154929
