luts/teal_orange.cube
TITLE "Teal & Orange (cinematic)"
LUT_3D_SIZE 5
0.000000 0.000000 0.065415
0.000000 0.000000 0.332472
0.000000 0.000000 0.671791
0.000000 0.000000 0.936840
0.000000 0.000000 1.000000
0.000000 0.142608 0.032517
0.000000 0.143137 0.265632
0.000000 0.143640 0.601519
0.000000 0.144119 0.894162
0.000000 0.144573 1.000000
0.000000 0.464703 0.009791
0.000000 0.465087 0.201314
0.000000 0.465436 0.527209
0.000000 0.465751 0.841591
0.000000 0.466032 0.998573
0.001556 0.800152 0.000202
0.002266 0.800189 0.143182
0.003103 0.800198 0.452336
0.004064 0.800179 0.781699
0.005146 0.800132 0.985269
0.013845 0.991951 0.000000
0.015680 0.991891 0.093777
0.017609 0.991824 0.379958
0.019631 0.991749 0.717481
0.021740 0.991666 0.960020
0.044823 0.000000 0.054869
0.048060 0.000000 0.312664
0.051417 0.000000 0.651586
0.054889 0.000001 0.925330
0.058475 0.000004 1.000000
0.081836 0.144093 0.024526
0.086139 0.144548 0.246051
0.090537 0.144978 0.579679
0.095027 0.145384 0.879458
0.099606 0.145764 1.000000
0.128326 0.465734 0.005479
0.133448 0.466017 0.183258
0.138639 0.466266 0.504870
0.143894 0.466481 0.824426
0.149211 0.466661 0.996024
0.181713 0.800181 0.000000
0.187374 0.800135 0.127488
0.193073 0.800061 0.430424
0.198805 0.799959 0.762913
0.204568 0.799828 0.978879
0.239037 0.991753 0.000000
0.244912 0.991671 0.081064
0.250787 0.991581 0.359373
0.256659 0.991484 0.698072
0.262522 0.991377 0.950686
0.319084 0.000001 0.044884
0.325909 0.000003 0.292714
0.332789 0.000008 0.630735
0.339720 0.000014 0.912795
0.346698 0.000021 1.000000
0.388651 0.145362 0.017547
0.395849 0.145743 0.226819
0.403065 0.146100 0.557588
0.410297 0.146432 0.863943
0.417541 0.146739 0.999992
0.460407 0.466470 0.002386
0.467652 0.466652 0.165828
0.474886 0.466800 0.482565
0.482106 0.466915 0.806686
0.489309 0.466995 0.992258
0.531342 0.799965 0.000000
0.538348 0.799836 0.112625
0.545314 0.799678 0.408812
0.552236 0.799491 0.743828
0.559113 0.799275 0.971505
0.598625 0.991489 0.000000
0.605098 0.991384 0.069327
0.611499 0.991270 0.339370
0.617823 0.991147 0.678715
0.624065 0.991015 0.940708
0.685240 0.000013 0.035661
0.692063 0.000021 0.272828
0.698861 0.000029 0.609390
0.705630 0.000038 0.899301
0.712367 0.000048 1.000000
0.751304 0.146414 0.011654
0.757725 0.146723 0.208029
0.764088 0.147006 0.535335
0.770391 0.147264 0.847683
0.776632 0.147498 0.999187
0.812083 0.466909 0.000551
0.817828 0.466991 0.149091
0.823492 0.467039 0.460372
0.829074 0.467053 0.788447
0.834572 0.467032 0.987335
0.865235 0.799502 0.000000
0.870106 0.799288 0.098641
0.874881 0.799045 0.387578
0.879557 0.798772 0.724536
0.884133 0.798470 0.963235
0.909057 0.991154 0.000000
0.912909 0.991023 0.058603
0.916649 0.990882 0.320052
0.920276 0.990732 0.659557
0.923787 0.990572 0.930233
0.957384 0.000038 0.027322
0.960529 0.000048 0.253144
0.963567 0.000058 0.587664
0.966495 0.000069 0.884909
0.969313 0.000080 1.000000
0.983565 0.147251 0.006910
0.985559 0.147486 0.189763
0.987427 0.147695 0.513004
0.989169 0.147880 0.830746
0.990784 0.148040 0.997096
0.997677 0.467053 0.000000
0.998392 0.467034 0.133108
0.998976 0.466980 0.438371
0.999428 0.466893 0.769792
0.999749 0.466770 0.981323
1.000000 0.798788 0.000000
1.000000 0.798488 0.085581
1.000000 0.798158 0.366805
1.000000 0.797797 0.705138
1.000000 0.797407 0.954165
1.000000 0.990741 0.000000
1.000000 0.990581 0.048927
1.000000 0.990411 0.301565
1.000000 0.990229 0.640816
1.000000 0.990034 0.919492
