luts/teal_orange.cube
TITLE "Teal & Orange (cinematic)"
LUT_3D_SIZE 9
0.000000 0.000000 0.065415
0.000000 0.000000 0.180744
0.000000 0.000000 0.332472
0.000000 0.000000 0.502262
0.000000 0.000000 0.671791
0.000000 0.000000 0.822750
0.000000 0.000000 0.936840
0.000000 0.000000 0.995773
0.000000 0.000000 1.000000
0.000000 0.038113 0.047983
0.000000 0.038304 0.153468
0.000000 0.038492 0.299058
0.000000 0.038676 0.466470
0.000000 0.038856 0.637425
0.000000 0.039033 0.793653
0.000000 0.039206 0.916888
0.000000 0.039376 0.988869
0.000000 0.039543 1.000000
0.000000 0.142608 0.032517
0.000000 0.142875 0.127100
0.000000 0.143137 0.265632
0.000000 0.143392 0.429856
0.000000 0.143640 0.601519
0.000000 0.143883 0.762370
0.000000 0.144119 0.894162
0.000000 0.144349 0.978650
0.000000 0.144573 1.000000
0.000000 0.291823 0.019651
0.000000 0.292082 0.102336
0.000000 0.292333 0.232890
0.000000 0.292576 0.393070
0.000000 0.292811 0.564634
0.000000 0.293039 0.729343
0.000000 0.293258 0.868961
0.000000 0.293470 0.965249
0.000000 0.293673 1.000000
0.000000 0.464703 0.009791
0.000000 0.464899 0.079638
0.000000 0.465087 0.201314
0.000000 0.465266 0.356583
0.000000 0.465436 0.527209
0.000000 0.465598 0.694957
0.000000 0.465751 0.841591
0.000000 0.465896 0.948875
0.000000 0.466032 0.998573
0.000000 0.640781 0.003234
0.000006 0.640888 0.059362
0.000045 0.640988 0.171298
0.000119 0.641079 0.320806
0.000227 0.641162 0.489649
0.000370 0.641236 0.659588
0.000547 0.641303 0.812385
0.000757 0.641361 0.929798
0.001001 0.641411 0.993584
0.001556 0.800152 0.000202
0.001895 0.800174 0.041799
0.002266 0.800189 0.143182
0.002669 0.800197 0.286109
0.003103 0.800198 0.452336
0.003568 0.800192 0.623616
0.004064 0.800179 0.781699
0.004590 0.800159 0.908335
0.005146 0.800132 0.985269
0.006287 0.923471 0.000000
0.006928 0.923439 0.027172
0.007598 0.923401 0.117258
0.008295 0.923358 0.252835
0.009020 0.923310 0.415647
0.009773 0.923258 0.587431
0.010552 0.923200 0.749923
0.011358 0.923138 0.884854
0.012190 0.923071 0.973951
0.013845 0.991951 0.000000
0.014750 0.991922 0.015644
0.015680 0.991891 0.093777
0.016633 0.991858 0.221308
0.017609 0.991824 0.379958
0.018609 0.991787 0.551445
0.019631 0.991749 0.717481
0.020674 0.991709 0.859772
0.021740 0.991666 0.960020
0.000033 0.000000 0.060093
0.000097 0.000000 0.172609
0.000194 0.000000 0.322605
0.000324 0.000000 0.491764
0.000488 0.000000 0.661781
0.000686 0.000000 0.814361
0.000917 0.000000 0.931218
0.001183 0.000000 0.994071
0.001482 0.000000 1.000000
0.002146 0.038666 0.043144
0.002544 0.038846 0.145496
0.002975 0.039023 0.289085
0.003440 0.039197 0.455637
0.003938 0.039367 0.626883
0.004471 0.039534 0.784560
0.005036 0.039697 0.910408
0.005635 0.039856 0.986173
0.006266 0.040012 1.000000
0.007561 0.143378 0.028400
0.008288 0.143627 0.119548
0.009048 0.143870 0.255804
0.009840 0.144106 0.418916
0.010663 0.144337 0.590636
0.011519 0.144561 0.752717
0.012407 0.144778 0.886916
0.013325 0.144990 0.974990
0.014275 0.145195 1.000000
0.016172 0.292563 0.016391
0.017211 0.292798 0.095356
0.018281 0.293026 0.223363
0.019381 0.293246 0.382173
0.020510 0.293458 0.553547
0.021670 0.293662 0.719247
0.022858 0.293858 0.861037
0.024075 0.294047 0.960681
0.025321 0.294227 0.999943
0.027774 0.465256 0.007485
0.029102 0.465427 0.073343
0.030457 0.465589 0.192212
0.031840 0.465743 0.345857
0.033249 0.465888 0.516041
0.034685 0.466025 0.684529
0.036147 0.466153 0.833085
0.037636 0.466272 0.943473
0.039149 0.466384 0.997454
0.042104 0.641074 0.001957
0.043690 0.641157 0.053847
0.045301 0.641232 0.162728
0.046936 0.641299 0.310363
0.048594 0.641358 0.478514
0.050275 0.641409 0.648940
0.051980 0.641451 0.803401
0.053706 0.641485 0.923651
0.055455 0.641510 0.991446
0.058848 0.800197 0.000002
0.060659 0.800198 0.037135
0.062491 0.800193 0.135234
0.064343 0.800180 0.276054
0.066215 0.800160 0.441347
0.068106 0.800133 0.612863
0.070017 0.800100 0.772349
0.071946 0.800059 0.901549
0.073893 0.800011 0.982202
0.077653 0.923361 0.000000
0.079651 0.923313 0.023416
0.081666 0.923261 0.110013
0.083696 0.923204 0.243267
0.085743 0.923142 0.404916
0.087804 0.923074 0.576694
0.089881 0.923002 0.740329
0.091971 0.922925 0.877545
0.094076 0.922843 0.970064
0.098124 0.991860 0.000000
0.100266 0.991826 0.012830
0.102420 0.991789 0.087301
0.104585 0.991751 0.212319
0.106762 0.991711 0.369599
0.108949 0.991669 0.540850
0.111146 0.991625 0.707777
0.113352 0.991579 0.852077
0.115567 0.991531 0.955441
0.044823 0.000000 0.054869
0.046427 0.000000 0.164477
0.048060 0.000000 0.312664
0.049724 0.000000 0.481131
0.051417 0.000000 0.651586
0.053139 0.000000 0.805744
0.054889 0.000001 0.925330
0.056668 0.000002 0.992072
0.058475 0.000004 1.000000
0.061996 0.039187 0.038503
0.063882 0.039358 0.137629
0.065796 0.039524 0.279135
0.067736 0.039688 0.444754
0.069703 0.039848 0.616224
0.071695 0.040004 0.775288
0.073713 0.040157 0.903692
0.075757 0.040306 0.983186
0.077825 0.040452 1.000000
0.081836 0.144093 0.024526
0.083976 0.144324 0.112152
0.086139 0.144548 0.246051
0.088327 0.144767 0.407974
0.090537 0.144978 0.579679
0.092771 0.145184 0.742920
0.095027 0.145384 0.879458
0.097305 0.145577 0.971054
0.099606 0.145764 1.000000
0.104050 0.293234 0.013406
0.106412 0.293447 0.088568
0.108795 0.293651 0.213950
0.111199 0.293848 0.371314
0.113622 0.294036 0.542423
0.116066 0.294217 0.709040
0.118528 0.294390 0.852930
0.121010 0.294556 0.955856
0.123510 0.294713 0.999585
0.128326 0.465734 0.005479
0.130879 0.465880 0.067272
0.133448 0.466017 0.183258
0.136035 0.466146 0.335203
0.138639 0.466266 0.504870
0.141258 0.466378 0.674024
0.143894 0.466481 0.824426
0.146545 0.466575 0.937840
0.149211 0.466661 0.996024
0.154332 0.641296 0.000996
0.157040 0.641355 0.048578
0.159762 0.641406 0.154334
0.162496 0.641449 0.300025
0.165244 0.641483 0.467411
0.168004 0.641509 0.638250
0.170776 0.641527 0.794296
0.173560 0.641537 0.917303
0.176356 0.641538 0.989022
0.181713 0.800181 0.000000
0.184538 0.800161 0.032737
0.187374 0.800135 0.127488
0.190219 0.800102 0.266134
0.193073 0.800061 0.430424
0.195935 0.800013 0.602103
0.198805 0.799959 0.762913
0.201683 0.799897 0.894593
0.204568 0.799828 0.978879
0.210085 0.923207 0.000000
0.212989 0.923145 0.019937
0.215898 0.923078 0.102989
0.218812 0.923006 0.233861
0.221731 0.922929 0.394284
0.224654 0.922848 0.565985
0.227581 0.922761 0.730687
0.230510 0.922668 0.870106
0.233443 0.922571 0.965956
0.239037 0.991753 0.000000
0.241974 0.991713 0.010299
0.244912 0.991671 0.081064
0.247850 0.991627 0.203520
0.250787 0.991581 0.359373
0.253724 0.991533 0.530326
0.256659 0.991484 0.698072
0.259592 0.991432 0.844298
0.262522 0.991377 0.950686
0.158873 0.000000 0.049791
0.161596 0.000000 0.156393
0.164343 0.000000 0.302691
0.167112 0.000001 0.470397
0.169904 0.000002 0.641230
0.172717 0.000003 0.796916
0.175552 0.000005 0.919186
0.178407 0.000008 0.989777
0.181282 0.000011 1.000000
0.186816 0.039679 0.034074
0.189747 0.039839 0.129885
0.192697 0.039995 0.269226
0.195665 0.040148 0.433837
0.198651 0.040298 0.605461
0.201654 0.040444 0.765847
0.204673 0.040586 0.896746
0.207710 0.040725 0.979912
0.210762 0.040860 1.000000
0.216623 0.144755 0.020905
0.219720 0.144967 0.104924
0.222832 0.145173 0.236385
0.225958 0.145373 0.397044
0.229098 0.145566 0.568659
0.232252 0.145754 0.732990
0.235418 0.145935 0.871798
0.238597 0.146110 0.966847
0.241789 0.146278 1.000000
0.247905 0.293837 0.010703
0.251130 0.294026 0.081983
0.254367 0.294208 0.204662
0.257614 0.294381 0.360504
0.260871 0.294547 0.531273
0.264138 0.294704 0.698733
0.267414 0.294854 0.844648
0.270699 0.294996 0.950783
0.273993 0.295130 0.998901
0.280294 0.466139 0.003777
0.283611 0.466260 0.061430
0.286935 0.466372 0.174461
0.290267 0.466475 0.324632
0.293604 0.466570 0.493708
0.296948 0.466657 0.663452
0.300297 0.466735 0.815623
0.303652 0.466804 0.931983
0.307012 0.466865 0.994290
0.313427 0.641446 0.000355
0.316799 0.641481 0.043561
0.320174 0.641508 0.146124
0.323553 0.641526 0.289801
0.326934 0.641536 0.456350
0.330317 0.641538 0.627526
0.333703 0.641532 0.785080
0.337089 0.641517 0.910762
0.340477 0.641494 0.986320
0.346936 0.800104 0.000000
0.350325 0.800063 0.028608
0.353713 0.800016 0.119950
0.357101 0.799962 0.256358
0.360487 0.799900 0.419576
0.363872 0.799832 0.591345
0.367254 0.799756 0.753402
0.370635 0.799673 0.887481
0.374012 0.799583 0.975310
0.380439 0.923010 0.000000
0.383805 0.922934 0.016738
0.387167 0.922852 0.096194
0.390524 0.922765 0.224626
0.393876 0.922674 0.383760
0.397221 0.922577 0.555316
0.400560 0.922475 0.721010
0.403892 0.922368 0.862550
0.407217 0.922255 0.961640
0.413532 0.991630 0.000000
0.416833 0.991584 0.008052
0.420124 0.991536 0.075071
0.423406 0.991486 0.194919
0.426677 0.991434 0.349293
0.429938 0.991381 0.519885
0.433186 0.991324 0.688378
0.436423 0.991266 0.836450
0.439646 0.991206 0.945769
0.319084 0.000001 0.044884
0.322489 0.000002 0.148387
0.325909 0.000003 0.292714
0.329342 0.000005 0.459587
0.332789 0.000008 0.630735
0.336248 0.000011 0.787892
0.339720 0.000014 0.912795
0.343203 0.000017 0.987188
0.346698 0.000021 1.000000
0.353387 0.040140 0.029871
0.356911 0.040289 0.122280
0.360444 0.040436 0.259374
0.363986 0.040578 0.422900
0.367536 0.040717 0.594607
0.371095 0.040853 0.756249
0.374660 0.040985 0.889579
0.378233 0.041113 0.976355
0.381813 0.041238 1.000000
0.388651 0.145362 0.017547
0.392248 0.145556 0.097875
0.395849 0.145743 0.226819
0.399455 0.145925 0.386136
0.403065 0.146100 0.557588
0.406679 0.146269 0.722936
0.410297 0.146432 0.863943
0.413917 0.146589 0.962374
0.417541 0.146739 0.999992
0.424452 0.294372 0.008290
0.428081 0.294538 0.075609
0.431711 0.294696 0.195509
0.435341 0.294846 0.349754
0.438973 0.294989 0.520108
0.442604 0.295123 0.688335
0.446235 0.295250 0.836200
0.449865 0.295369 0.945467
0.453494 0.295480 0.997898
0.460407 0.466470 0.002386
0.464031 0.466565 0.055826
0.467652 0.466652 0.165828
0.471271 0.466731 0.314153
0.474886 0.466800 0.482565
0.478498 0.466862 0.652822
0.482106 0.466915 0.806686
0.485710 0.466959 0.925913
0.489309 0.466995 0.992258
0.496154 0.641525 0.000037
0.499737 0.641536 0.038803
0.503315 0.641538 0.138105
0.506886 0.641532 0.279700
0.510450 0.641518 0.445341
0.514007 0.641495 0.616779
0.517557 0.641464 0.775764
0.521099 0.641425 0.904039
0.524632 0.641377 0.983348
0.531342 0.799965 0.000000
0.534850 0.799904 0.024751
0.538348 0.799836 0.112625
0.541836 0.799760 0.246732
0.545314 0.799678 0.408812
0.548780 0.799588 0.580600
0.552236 0.799491 0.743828
0.555681 0.799387 0.880222
0.559113 0.799275 0.971505
0.565621 0.922770 0.000000
0.569017 0.922679 0.013821
0.572400 0.922582 0.089631
0.575768 0.922481 0.215570
0.579123 0.922374 0.373355
0.582463 0.922262 0.544700
0.585789 0.922144 0.711311
0.589098 0.922022 0.854889
0.592392 0.921894 0.957129
0.598625 0.991489 0.000000
0.601870 0.991437 0.006088
0.605098 0.991384 0.069327
0.608308 0.991328 0.186525
0.611499 0.991270 0.339370
0.614671 0.991209 0.509542
0.617823 0.991147 0.678715
0.620955 0.991082 0.828552
0.624065 0.991015 0.940708
0.502281 0.000005 0.040169
0.505919 0.000008 0.140480
0.509561 0.000010 0.282753
0.513208 0.000014 0.448721
0.516858 0.000017 0.620117
0.520511 0.000021 0.778683
0.524166 0.000025 0.906164
0.527823 0.000029 0.984307
0.531482 0.000034 1.000000
0.538456 0.040570 0.025908
0.542116 0.040710 0.114826
0.545776 0.040845 0.249592
0.549434 0.040977 0.411957
0.553091 0.041106 0.583676
0.556747 0.041231 0.746503
0.560400 0.041353 0.882197
0.564050 0.041470 0.972519
0.567698 0.041585 1.000000
0.574639 0.145915 0.014460
0.578275 0.146091 0.091016
0.581907 0.146260 0.217363
0.585534 0.146423 0.375262
0.589155 0.146580 0.546476
0.592771 0.146731 0.712768
0.596380 0.146875 0.855902
0.599983 0.147013 0.957642
0.603579 0.147145 0.999753
0.610412 0.294838 0.006174
0.613986 0.294981 0.069456
0.617552 0.295116 0.186500
0.621109 0.295243 0.339073
0.624657 0.295363 0.508937
0.628196 0.295474 0.677857
0.631726 0.295578 0.827596
0.635245 0.295673 0.939917
0.638754 0.295761 0.996580
0.645412 0.466726 0.001309
0.648889 0.466797 0.050467
0.652355 0.466859 0.157369
0.655809 0.466912 0.303776
0.659251 0.466957 0.471449
0.662680 0.466993 0.642146
0.666096 0.467021 0.797624
0.669499 0.467040 0.919637
0.672889 0.467050 0.989937
0.679310 0.641533 0.000000
0.682659 0.641519 0.034307
0.685993 0.641497 0.130285
0.689312 0.641466 0.269730
0.692616 0.641427 0.434393
0.695905 0.641380 0.606021
0.699177 0.641325 0.766358
0.702434 0.641261 0.897144
0.705674 0.641189 0.980117
0.711802 0.799765 0.000000
0.714992 0.799682 0.021171
0.718165 0.799593 0.105520
0.721320 0.799496 0.237266
0.724457 0.799393 0.398143
0.727576 0.799282 0.569880
0.730675 0.799163 0.734202
0.733756 0.799038 0.872829
0.736817 0.798905 0.967476
0.742597 0.922486 0.000000
0.745601 0.922380 0.011187
0.748583 0.922268 0.083307
0.751546 0.922151 0.206700
0.754487 0.922029 0.363080
0.757406 0.921901 0.534148
0.760304 0.921768 0.701604
0.763179 0.921630 0.847139
0.766033 0.921487 0.952436
0.771407 0.991331 0.000000
0.774193 0.991273 0.004405
0.776955 0.991213 0.063836
0.779692 0.991150 0.178348
0.782405 0.991086 0.329618
0.785093 0.991019 0.499315
0.787755 0.990950 0.669100
0.790391 0.990878 0.820622
0.793000 0.990804 0.935522
0.685240 0.000013 0.035661
0.688654 0.000017 0.132689
0.692063 0.000021 0.272828
0.695465 0.000025 0.437814
0.698861 0.000029 0.609390
0.702249 0.000034 0.769303
0.705630 0.000038 0.899301
0.709003 0.000043 0.981137
0.712367 0.000048 1.000000
0.718753 0.040970 0.022193
0.722089 0.041099 0.107535
0.725415 0.041224 0.239893
0.728731 0.041346 0.401021
0.732035 0.041464 0.572677
0.735328 0.041578 0.736620
0.738609 0.041689 0.874610
0.741878 0.041797 0.968409
0.745134 0.041900 1.000000
0.751304 0.146414 0.011654
0.754521 0.146572 0.084356
0.757725 0.146723 0.208029
0.760914 0.146867 0.364434
0.764088 0.147006 0.535335
0.767247 0.147138 0.702496
0.770391 0.147264 0.847683
0.773520 0.147384 0.952658
0.776632 0.147498 0.999187
0.782518 0.295236 0.004361
0.785582 0.295356 0.063530
0.788630 0.295468 0.177645
0.791659 0.295572 0.328470
0.794671 0.295668 0.497770
0.797665 0.295757 0.667308
0.800641 0.295837 0.818844
0.803598 0.295910 0.934141
0.806536 0.295974 0.994956
0.812083 0.466909 0.000551
0.814965 0.466955 0.045358
0.817828 0.466991 0.149091
0.820670 0.467019 0.293510
0.823492 0.467039 0.460372
0.826293 0.467050 0.631433
0.829074 0.467053 0.788447
0.831834 0.467046 0.913165
0.834572 0.467032 0.987335
0.839731 0.641468 0.000000
0.842407 0.641430 0.030080
0.845060 0.641383 0.122670
0.847691 0.641328 0.259900
0.850299 0.641265 0.423516
0.852885 0.641193 0.595261
0.855448 0.641113 0.756873
0.857988 0.641024 0.890088
0.860504 0.640927 0.976637
0.865235 0.799502 0.000000
0.867683 0.799399 0.017871
0.870106 0.799288 0.098641
0.872506 0.799170 0.227968
0.874881 0.799045 0.387578
0.877231 0.798912 0.559195
0.879557 0.798772 0.724536
0.881857 0.798625 0.865314
0.884133 0.798470 0.963235
0.888400 0.922158 0.000000
0.890602 0.922036 0.008837
0.892778 0.921908 0.077224
0.894929 0.921776 0.198027
0.897053 0.921638 0.352945
0.899151 0.921495 0.523675
0.901222 0.921346 0.691905
0.903267 0.921192 0.839314
0.905286 0.921032 0.947577
0.909057 0.991154 0.000000
0.910997 0.991089 0.003002
0.912909 0.991023 0.058603
0.914793 0.990954 0.170397
0.916649 0.990882 0.320052
0.918477 0.990808 0.489224
0.920276 0.990732 0.659557
0.922046 0.990653 0.812686
0.923787 0.990572 0.930233
0.844700 0.000025 0.031374
0.847431 0.000029 0.125032
0.850146 0.000033 0.262953
0.852844 0.000038 0.426883
0.855525 0.000043 0.598568
0.858189 0.000048 0.759761
0.860835 0.000053 0.892213
0.863463 0.000059 0.977683
0.866072 0.000064 1.000000
0.870993 0.041339 0.018738
0.873546 0.041458 0.100420
0.876079 0.041572 0.230289
0.878592 0.041683 0.390104
0.881085 0.041791 0.561624
0.883556 0.041895 0.726610
0.886007 0.041995 0.866825
0.888435 0.042092 0.964033
0.890842 0.042185 1.000000
0.895368 0.146860 0.009135
0.897709 0.146998 0.077905
0.900028 0.147131 0.198825
0.902324 0.147258 0.353660
0.904596 0.147378 0.524174
0.906844 0.147492 0.692130
0.909068 0.147599 0.839294
0.911269 0.147701 0.947430
0.913445 0.147796 0.998300
0.917523 0.295567 0.002856
0.919626 0.295663 0.057839
0.921705 0.295752 0.168951
0.923758 0.295833 0.317957
0.925785 0.295906 0.486619
0.927786 0.295971 0.656698
0.929761 0.296028 0.809955
0.931711 0.296078 0.928147
0.933633 0.296119 0.993032
0.937224 0.467018 0.000115
0.939069 0.467038 0.040505
0.940887 0.467050 0.141002
0.942678 0.467053 0.283363
0.944442 0.467047 0.449342
0.946178 0.467033 0.620694
0.947887 0.467010 0.779166
0.949568 0.466978 0.906507
0.951222 0.466938 0.984461
0.954296 0.641331 0.000000
0.955868 0.641268 0.026123
0.957412 0.641197 0.115266
0.958928 0.641117 0.250218
0.960415 0.641029 0.412720
0.961875 0.640933 0.584510
0.963305 0.640828 0.747320
0.964708 0.640714 0.882881
0.966081 0.640592 0.972917
0.968620 0.799177 0.000000
0.969911 0.799052 0.014851
0.971173 0.798920 0.091993
0.972406 0.798780 0.218846
0.973610 0.798633 0.377129
0.974786 0.798479 0.548558
0.975933 0.798317 0.714844
0.977052 0.798148 0.857689
0.978141 0.797971 0.958793
0.980139 0.921783 0.000000
0.981145 0.921646 0.006770
0.982123 0.921503 0.071389
0.983073 0.921355 0.189556
0.983994 0.921201 0.342963
0.984887 0.921041 0.513295
0.985751 0.920876 0.682228
0.986588 0.920706 0.831432
0.987396 0.920530 0.942566
0.988859 0.990958 0.000000
0.989586 0.990886 0.001875
0.990285 0.990813 0.053631
0.990957 0.990737 0.162686
0.991602 0.990658 0.310693
0.992219 0.990577 0.479292
0.992809 0.990493 0.650114
0.993372 0.990406 0.804774
0.993908 0.990316 0.924872
0.957384 0.000038 0.027322
0.958969 0.000043 0.117521
0.960529 0.000048 0.253144
0.962061 0.000053 0.415941
0.963567 0.000058 0.587664
0.965045 0.000064 0.750067
0.966495 0.000069 0.884909
0.967918 0.000075 0.973947
0.969313 0.000080 1.000000
0.971891 0.041677 0.015552
0.973202 0.041785 0.093491
0.974484 0.041889 0.220792
0.975737 0.041989 0.379216
0.976959 0.042086 0.550526
0.978152 0.042180 0.716482
0.979315 0.042269 0.858850
0.980448 0.042355 0.959394
0.981550 0.042437 0.999878
0.983565 0.147251 0.006910
0.984578 0.147371 0.071670
0.985559 0.147486 0.189763
0.986509 0.147594 0.342953
0.987427 0.147695 0.513004
0.988314 0.147791 0.681680
0.989169 0.147880 0.830746
0.989993 0.147963 0.941964
0.990784 0.148040 0.997096
0.992203 0.295829 0.001664
0.992900 0.295902 0.052390
0.993566 0.295968 0.160428
0.994198 0.296025 0.307542
0.994799 0.296075 0.475492
0.995366 0.296117 0.646038
0.995901 0.296151 0.800937
0.996403 0.296177 0.921945
0.996873 0.296196 0.990815
0.997677 0.467053 0.000000
0.998051 0.467048 0.035913
0.998392 0.467034 0.133108
0.998700 0.467011 0.273344
0.998976 0.466980 0.438371
0.999218 0.466941 0.609938
0.999428 0.466893 0.769792
0.999605 0.466836 0.899674
0.999749 0.466770 0.981323
0.999934 0.641122 0.000000
0.999983 0.641034 0.022443
1.000000 0.640938 0.108081
1.000000 0.640834 0.240693
1.000000 0.640721 0.402015
1.000000 0.640599 0.573779
1.000000 0.640469 0.737711
1.000000 0.640331 0.875535
1.000000 0.640183 0.968968
1.000000 0.798788 0.000000
1.000000 0.798642 0.012114
1.000000 0.798488 0.085581
1.000000 0.798326 0.209907
1.000000 0.798158 0.366805
1.000000 0.797981 0.537981
1.000000 0.797797 0.705138
1.000000 0.797606 0.849970
1.000000 0.797407 0.954165
1.000000 0.921363 0.000000
1.000000 0.921209 0.004985
1.000000 0.921050 0.065806
1.000000 0.920886 0.181299
1.000000 0.920715 0.333147
1.000000 0.920540 0.503024
1.000000 0.920358 0.672593
1.000000 0.920170 0.823511
1.000000 0.919977 0.937423
1.000000 0.990741 0.000000
1.000000 0.990662 0.001020
1.000000 0.990581 0.048927
1.000000 0.990497 0.155230
1.000000 0.990411 0.301565
1.000000 0.990321 0.469557
1.000000 0.990229 0.640816
1.000000 0.990133 0.796937
1.000000 0.990034 0.919492
