luts/warm_vintage.cube
TITLE "Warm Vintage"
LUT_3D_SIZE 9
0.068800 0.045000 0.038800
0.070484 0.046604 0.114950
0.072167 0.048209 0.191100
0.073851 0.049813 0.267250
0.075535 0.051417 0.343401
0.077219 0.053021 0.419551
0.078902 0.054626 0.495701
0.080586 0.056230 0.571851
0.082270 0.057834 0.648001
0.085478 0.149772 0.052174
0.087162 0.151376 0.128324
0.088846 0.152980 0.204475
0.090530 0.154585 0.280625
0.092213 0.156189 0.356775
0.093897 0.157793 0.432925
0.095581 0.159397 0.509075
0.097264 0.161002 0.585225
0.098948 0.162606 0.661375
0.102157 0.254543 0.065548
0.103841 0.256148 0.141699
0.105524 0.257752 0.217849
0.107208 0.259356 0.293999
0.108892 0.260961 0.370149
0.110575 0.262565 0.446299
0.112259 0.264169 0.522449
0.113943 0.265773 0.598599
0.115627 0.267378 0.674750
0.118835 0.359315 0.078923
0.120519 0.360920 0.155073
0.122203 0.362524 0.231223
0.123887 0.364128 0.307373
0.125570 0.365732 0.383523
0.127254 0.367337 0.459673
0.128938 0.368941 0.535824
0.130621 0.370545 0.611974
0.132305 0.372150 0.688124
0.135514 0.464087 0.092297
0.137198 0.465691 0.168447
0.138881 0.467296 0.244597
0.140565 0.468900 0.320747
0.142249 0.470504 0.396898
0.143932 0.472108 0.473048
0.145616 0.473713 0.549198
0.147300 0.475317 0.625348
0.148983 0.476921 0.701498
0.152192 0.568859 0.105671
0.153876 0.570463 0.181821
0.155560 0.572067 0.257971
0.157243 0.573672 0.334122
0.158927 0.575276 0.410272
0.160611 0.576880 0.486422
0.162295 0.578484 0.562572
0.163978 0.580089 0.638722
0.165662 0.581693 0.714872
0.168871 0.673630 0.119045
0.170554 0.675235 0.195196
0.172238 0.676839 0.271346
0.173922 0.678443 0.347496
0.175606 0.680048 0.423646
0.177289 0.681652 0.499796
0.178973 0.683256 0.575946
0.180657 0.684860 0.652096
0.182340 0.686465 0.728247
0.185549 0.778402 0.132420
0.187233 0.780006 0.208570
0.188917 0.781611 0.284720
0.190600 0.783215 0.360870
0.192284 0.784819 0.437020
0.193968 0.786424 0.513170
0.195651 0.788028 0.589321
0.197335 0.789632 0.665471
0.199019 0.791236 0.741621
0.202228 0.883174 0.145794
0.203911 0.884778 0.221944
0.205595 0.886383 0.298094
0.207279 0.887987 0.374244
0.208963 0.889591 0.450394
0.210646 0.891195 0.526545
0.212330 0.892800 0.602695
0.214014 0.894404 0.678845
0.215697 0.896008 0.754995
0.167038 0.049724 0.042776
0.168722 0.051328 0.118926
0.170405 0.052933 0.195076
0.172089 0.054537 0.271226
0.173773 0.056141 0.347376
0.175456 0.057745 0.423526
0.177140 0.059350 0.499676
0.178824 0.060954 0.575827
0.180507 0.062558 0.651977
0.183716 0.154496 0.056150
0.185400 0.156100 0.132300
0.187084 0.157704 0.208450
0.188767 0.159309 0.284600
0.190451 0.160913 0.360750
0.192135 0.162517 0.436901
0.193819 0.164121 0.513051
0.195502 0.165726 0.589201
0.197186 0.167330 0.665351
0.200395 0.259267 0.069524
0.202078 0.260872 0.145674
0.203762 0.262476 0.221824
0.205446 0.264080 0.297975
0.207130 0.265685 0.374125
0.208813 0.267289 0.450275
0.210497 0.268893 0.526425
0.212181 0.270497 0.602575
0.213864 0.272102 0.678725
0.217073 0.364039 0.082898
0.218757 0.365643 0.159048
0.220441 0.367248 0.235199
0.222124 0.368852 0.311349
0.223808 0.370456 0.387499
0.225492 0.372061 0.463649
0.227175 0.373665 0.539799
0.228859 0.375269 0.615949
0.230543 0.376873 0.692099
0.233752 0.468811 0.096273
0.235435 0.470415 0.172423
0.237119 0.472020 0.248573
0.238803 0.473624 0.324723
0.240487 0.475228 0.400873
0.242170 0.476832 0.477023
0.243854 0.478437 0.553173
0.245538 0.480041 0.629324
0.247221 0.481645 0.705474
0.250430 0.573583 0.109647
0.252114 0.575187 0.185797
0.253798 0.576791 0.261947
0.255481 0.578396 0.338097
0.257165 0.580000 0.414247
0.258849 0.581604 0.490398
0.260532 0.583208 0.566548
0.262216 0.584813 0.642698
0.263900 0.586417 0.718848
0.267109 0.678354 0.123021
0.268792 0.679959 0.199171
0.270476 0.681563 0.275321
0.272160 0.683167 0.351471
0.273843 0.684772 0.427622
0.275527 0.686376 0.503772
0.277211 0.687980 0.579922
0.278895 0.689584 0.656072
0.280578 0.691189 0.732222
0.283787 0.783126 0.136395
0.285471 0.784730 0.212545
0.287154 0.786335 0.288696
0.288838 0.787939 0.364846
0.290522 0.789543 0.440996
0.292206 0.791148 0.517146
0.293889 0.792752 0.593296
0.295573 0.794356 0.669446
0.297257 0.795960 0.745596
0.300466 0.887898 0.149770
0.302149 0.889502 0.225920
0.303833 0.891106 0.302070
0.305517 0.892711 0.378220
0.307200 0.894315 0.454370
0.308884 0.895919 0.530520
0.310568 0.897524 0.606670
0.312251 0.899128 0.682821
0.313935 0.900732 0.758971
0.265276 0.054448 0.046751
0.266959 0.056052 0.122901
0.268643 0.057657 0.199052
0.270327 0.059261 0.275202
0.272010 0.060865 0.351352
0.273694 0.062469 0.427502
0.275378 0.064074 0.503652
0.277062 0.065678 0.579802
0.278745 0.067282 0.655952
0.281954 0.159220 0.060125
0.283638 0.160824 0.136276
0.285322 0.162428 0.212426
0.287005 0.164033 0.288576
0.288689 0.165637 0.364726
0.290373 0.167241 0.440876
0.292056 0.168845 0.517026
0.293740 0.170450 0.593176
0.295424 0.172054 0.669327
0.298633 0.263991 0.073500
0.300316 0.265596 0.149650
0.302000 0.267200 0.225800
0.303684 0.268804 0.301950
0.305367 0.270409 0.378100
0.307051 0.272013 0.454250
0.308735 0.273617 0.530401
0.310419 0.275221 0.606551
0.312102 0.276826 0.682701
0.315311 0.368763 0.086874
0.316995 0.370367 0.163024
0.318678 0.371972 0.239174
0.320362 0.373576 0.315324
0.322046 0.375180 0.391475
0.323730 0.376785 0.467625
0.325413 0.378389 0.543775
0.327097 0.379993 0.619925
0.328781 0.381597 0.696075
0.331990 0.473535 0.100248
0.333673 0.475139 0.176398
0.335357 0.476743 0.252548
0.337041 0.478348 0.328699
0.338724 0.479952 0.404849
0.340408 0.481556 0.480999
0.342092 0.483161 0.557149
0.343775 0.484765 0.633299
0.345459 0.486369 0.709449
0.348668 0.578307 0.113622
0.350352 0.579911 0.189773
0.352035 0.581515 0.265923
0.353719 0.583120 0.342073
0.355403 0.584724 0.418223
0.357087 0.586328 0.494373
0.358770 0.587932 0.570523
0.360454 0.589537 0.646673
0.362138 0.591141 0.722824
0.365346 0.683078 0.126997
0.367030 0.684683 0.203147
0.368714 0.686287 0.279297
0.370398 0.687891 0.355447
0.372081 0.689496 0.431597
0.373765 0.691100 0.507747
0.375449 0.692704 0.583898
0.377132 0.694308 0.660048
0.378816 0.695913 0.736198
0.382025 0.787850 0.140371
0.383709 0.789454 0.216521
0.385392 0.791059 0.292671
0.387076 0.792663 0.368821
0.388760 0.794267 0.444971
0.390443 0.795872 0.521122
0.392127 0.797476 0.597272
0.393811 0.799080 0.673422
0.395495 0.800684 0.749572
0.398703 0.892622 0.153745
0.400387 0.894226 0.229895
0.402071 0.895830 0.306045
0.403754 0.897435 0.382196
0.405438 0.899039 0.458346
0.407122 0.900643 0.534496
0.408806 0.902248 0.610646
0.410489 0.903852 0.686796
0.412173 0.905456 0.762946
0.363513 0.059172 0.050727
0.365197 0.060776 0.126877
0.366881 0.062380 0.203027
0.368565 0.063985 0.279177
0.370248 0.065589 0.355327
0.371932 0.067193 0.431478
0.373616 0.068798 0.507628
0.375299 0.070402 0.583778
0.376983 0.072006 0.659928
0.380192 0.163944 0.064101
0.381876 0.165548 0.140251
0.383559 0.167152 0.216401
0.385243 0.168757 0.292552
0.386927 0.170361 0.368702
0.388610 0.171965 0.444852
0.390294 0.173569 0.521002
0.391978 0.175174 0.597152
0.393662 0.176778 0.673302
0.396870 0.268715 0.077475
0.398554 0.270320 0.153625
0.400238 0.271924 0.229776
0.401922 0.273528 0.305926
0.403605 0.275133 0.382076
0.405289 0.276737 0.458226
0.406973 0.278341 0.534376
0.408656 0.279945 0.610526
0.410340 0.281550 0.686676
0.413549 0.373487 0.090850
0.415233 0.375091 0.167000
0.416916 0.376696 0.243150
0.418600 0.378300 0.319300
0.420284 0.379904 0.395450
0.421967 0.381509 0.471600
0.423651 0.383113 0.547750
0.425335 0.384717 0.623901
0.427019 0.386321 0.700051
0.430227 0.478259 0.104224
0.431911 0.479863 0.180374
0.433595 0.481467 0.256524
0.435278 0.483072 0.332674
0.436962 0.484676 0.408824
0.438646 0.486280 0.484975
0.440330 0.487885 0.561125
0.442013 0.489489 0.637275
0.443697 0.491093 0.713425
0.446906 0.583031 0.117598
0.448590 0.584635 0.193748
0.450273 0.586239 0.269898
0.451957 0.587843 0.346048
0.453641 0.589448 0.422199
0.455324 0.591052 0.498349
0.457008 0.592656 0.574499
0.458692 0.594261 0.650649
0.460375 0.595865 0.726799
0.463584 0.687802 0.130972
0.465268 0.689407 0.207122
0.466952 0.691011 0.283273
0.468635 0.692615 0.359423
0.470319 0.694220 0.435573
0.472003 0.695824 0.511723
0.473687 0.697428 0.587873
0.475370 0.699032 0.664023
0.477054 0.700637 0.740173
0.480263 0.792574 0.144347
0.481946 0.794178 0.220497
0.483630 0.795783 0.296647
0.485314 0.797387 0.372797
0.486998 0.798991 0.448947
0.488681 0.800596 0.525097
0.490365 0.802200 0.601247
0.492049 0.803804 0.677398
0.493732 0.805408 0.753548
0.496941 0.897346 0.157721
0.498625 0.898950 0.233871
0.500309 0.900554 0.310021
0.501992 0.902159 0.386171
0.503676 0.903763 0.462321
0.505360 0.905367 0.538471
0.507043 0.906972 0.614622
0.508727 0.908576 0.690772
0.510411 0.910180 0.766922
0.461751 0.063896 0.054702
0.463435 0.065500 0.130853
0.465119 0.067104 0.207003
0.466802 0.068709 0.283153
0.468486 0.070313 0.359303
0.470170 0.071917 0.435453
0.471854 0.073522 0.511603
0.473537 0.075126 0.587753
0.475221 0.076730 0.663904
0.478430 0.168668 0.068077
0.480113 0.170272 0.144227
0.481797 0.171876 0.220377
0.483481 0.173480 0.296527
0.485165 0.175085 0.372677
0.486848 0.176689 0.448827
0.488532 0.178293 0.524978
0.490216 0.179898 0.601128
0.491899 0.181502 0.677278
0.495108 0.273439 0.081451
0.496792 0.275044 0.157601
0.498476 0.276648 0.233751
0.500159 0.278252 0.309901
0.501843 0.279857 0.386052
0.503527 0.281461 0.462202
0.505210 0.283065 0.538352
0.506894 0.284669 0.614502
0.508578 0.286274 0.690652
0.511787 0.378211 0.094825
0.513470 0.379815 0.170975
0.515154 0.381420 0.247125
0.516838 0.383024 0.323276
0.518522 0.384628 0.399426
0.520205 0.386233 0.475576
0.521889 0.387837 0.551726
0.523573 0.389441 0.627876
0.525256 0.391045 0.704026
0.528465 0.482983 0.108199
0.530149 0.484587 0.184350
0.531833 0.486191 0.260500
0.533516 0.487796 0.336650
0.535200 0.489400 0.412800
0.536884 0.491004 0.488950
0.538567 0.492609 0.565100
0.540251 0.494213 0.641250
0.541935 0.495817 0.717401
0.545144 0.587755 0.121574
0.546827 0.589359 0.197724
0.548511 0.590963 0.273874
0.550195 0.592567 0.350024
0.551878 0.594172 0.426174
0.553562 0.595776 0.502324
0.555246 0.597380 0.578475
0.556930 0.598985 0.654625
0.558613 0.600589 0.730775
0.561822 0.692526 0.134948
0.563506 0.694131 0.211098
0.565190 0.695735 0.287248
0.566873 0.697339 0.363398
0.568557 0.698943 0.439548
0.570241 0.700548 0.515699
0.571924 0.702152 0.591849
0.573608 0.703756 0.667999
0.575292 0.705361 0.744149
0.578501 0.797298 0.148322
0.580184 0.798902 0.224472
0.581868 0.800507 0.300622
0.583552 0.802111 0.376773
0.585235 0.803715 0.452923
0.586919 0.805320 0.529073
0.588603 0.806924 0.605223
0.590287 0.808528 0.681373
0.591970 0.810132 0.757523
0.595179 0.902070 0.161696
0.596863 0.903674 0.237847
0.598546 0.905278 0.313997
0.600230 0.906883 0.390147
0.601914 0.908487 0.466297
0.603598 0.910091 0.542447
0.605281 0.911696 0.618597
0.606965 0.913300 0.694747
0.608649 0.914904 0.770898
0.559989 0.068620 0.058678
0.561673 0.070224 0.134828
0.563357 0.071828 0.210978
0.565040 0.073433 0.287129
0.566724 0.075037 0.363279
0.568408 0.076641 0.439429
0.570091 0.078246 0.515579
0.571775 0.079850 0.591729
0.573459 0.081454 0.667879
0.576668 0.173392 0.072052
0.578351 0.174996 0.148202
0.580035 0.176600 0.224353
0.581719 0.178204 0.300503
0.583402 0.179809 0.376653
0.585086 0.181413 0.452803
0.586770 0.183017 0.528953
0.588454 0.184622 0.605103
0.590137 0.186226 0.681253
0.593346 0.278163 0.085427
0.595030 0.279768 0.161577
0.596713 0.281372 0.237727
0.598397 0.282976 0.313877
0.600081 0.284580 0.390027
0.601765 0.286185 0.466177
0.603448 0.287789 0.542327
0.605132 0.289393 0.618478
0.606816 0.290998 0.694628
0.610025 0.382935 0.098801
0.611708 0.384539 0.174951
0.613392 0.386144 0.251101
0.615076 0.387748 0.327251
0.616759 0.389352 0.403401
0.618443 0.390957 0.479552
0.620127 0.392561 0.555702
0.621810 0.394165 0.631852
0.623494 0.395769 0.708002
0.626703 0.487707 0.112175
0.628387 0.489311 0.188325
0.630070 0.490915 0.264475
0.631754 0.492520 0.340625
0.633438 0.494124 0.416776
0.635122 0.495728 0.492926
0.636805 0.497333 0.569076
0.638489 0.498937 0.645226
0.640173 0.500541 0.721376
0.643381 0.592479 0.125549
0.645065 0.594083 0.201699
0.646749 0.595687 0.277850
0.648433 0.597291 0.354000
0.650116 0.598896 0.430150
0.651800 0.600500 0.506300
0.653484 0.602104 0.582450
0.655167 0.603709 0.658600
0.656851 0.605313 0.734750
0.660060 0.697250 0.138924
0.661744 0.698855 0.215074
0.663427 0.700459 0.291224
0.665111 0.702063 0.367374
0.666795 0.703667 0.443524
0.668478 0.705272 0.519674
0.670162 0.706876 0.595824
0.671846 0.708480 0.671975
0.673530 0.710085 0.748125
0.676738 0.802022 0.152298
0.678422 0.803626 0.228448
0.680106 0.805231 0.304598
0.681790 0.806835 0.380748
0.683473 0.808439 0.456898
0.685157 0.810043 0.533048
0.686841 0.811648 0.609199
0.688524 0.813252 0.685349
0.690208 0.814856 0.761499
0.693417 0.906794 0.165672
0.695101 0.908398 0.241822
0.696784 0.910002 0.317972
0.698468 0.911607 0.394122
0.700152 0.913211 0.470273
0.701835 0.914815 0.546423
0.703519 0.916420 0.622573
0.705203 0.918024 0.698723
0.706887 0.919628 0.774873
0.658227 0.073344 0.062654
0.659911 0.074948 0.138804
0.661594 0.076552 0.214954
0.663278 0.078157 0.291104
0.664962 0.079761 0.367254
0.666646 0.081365 0.443404
0.668329 0.082970 0.519555
0.670013 0.084574 0.595705
0.671697 0.086178 0.671855
0.674905 0.178116 0.076028
0.676589 0.179720 0.152178
0.678273 0.181324 0.228328
0.679957 0.182928 0.304478
0.681640 0.184533 0.380629
0.683324 0.186137 0.456779
0.685008 0.187741 0.532929
0.686691 0.189346 0.609079
0.688375 0.190950 0.685229
0.691584 0.282887 0.089402
0.693268 0.284492 0.165552
0.694951 0.286096 0.241702
0.696635 0.287700 0.317853
0.698319 0.289304 0.394003
0.700002 0.290909 0.470153
0.701686 0.292513 0.546303
0.703370 0.294117 0.622453
0.705054 0.295722 0.698603
0.708262 0.387659 0.102776
0.709946 0.389263 0.178927
0.711630 0.390868 0.255077
0.713313 0.392472 0.331227
0.714997 0.394076 0.407377
0.716681 0.395680 0.483527
0.718365 0.397285 0.559677
0.720048 0.398889 0.635827
0.721732 0.400493 0.711978
0.724941 0.492431 0.116151
0.726625 0.494035 0.192301
0.728308 0.495639 0.268451
0.729992 0.497244 0.344601
0.731676 0.498848 0.420751
0.733359 0.500452 0.496901
0.735043 0.502057 0.573052
0.736727 0.503661 0.649202
0.738410 0.505265 0.725352
0.741619 0.597203 0.129525
0.743303 0.598807 0.205675
0.744987 0.600411 0.281825
0.746670 0.602015 0.357975
0.748354 0.603620 0.434125
0.750038 0.605224 0.510276
0.751722 0.606828 0.586426
0.753405 0.608433 0.662576
0.755089 0.610037 0.738726
0.758298 0.701974 0.142899
0.759981 0.703579 0.219049
0.761665 0.705183 0.295199
0.763349 0.706787 0.371350
0.765033 0.708391 0.447500
0.766716 0.709996 0.523650
0.768400 0.711600 0.599800
0.770084 0.713204 0.675950
0.771767 0.714809 0.752100
0.774976 0.806746 0.156273
0.776660 0.808350 0.232424
0.778344 0.809955 0.308574
0.780027 0.811559 0.384724
0.781711 0.813163 0.460874
0.783395 0.814767 0.537024
0.785078 0.816372 0.613174
0.786762 0.817976 0.689324
0.788446 0.819580 0.765475
0.791655 0.911518 0.169648
0.793338 0.913122 0.245798
0.795022 0.914726 0.321948
0.796706 0.916331 0.398098
0.798390 0.917935 0.474248
0.800073 0.919539 0.550398
0.801757 0.921143 0.626548
0.803441 0.922748 0.702699
0.805124 0.924352 0.778849
0.756465 0.078068 0.066629
0.758149 0.079672 0.142779
0.759832 0.081276 0.218930
0.761516 0.082881 0.295080
0.763200 0.084485 0.371230
0.764883 0.086089 0.447380
0.766567 0.087694 0.523530
0.768251 0.089298 0.599680
0.769934 0.090902 0.675830
0.773143 0.182840 0.080004
0.774827 0.184444 0.156154
0.776511 0.186048 0.232304
0.778194 0.187652 0.308454
0.779878 0.189257 0.384604
0.781562 0.190861 0.460754
0.783246 0.192465 0.536904
0.784929 0.194070 0.613055
0.786613 0.195674 0.689205
0.789822 0.287611 0.093378
0.791505 0.289216 0.169528
0.793189 0.290820 0.245678
0.794873 0.292424 0.321828
0.796557 0.294028 0.397978
0.798240 0.295633 0.474129
0.799924 0.297237 0.550279
0.801608 0.298841 0.626429
0.803291 0.300446 0.702579
0.806500 0.392383 0.106752
0.808184 0.393987 0.182902
0.809868 0.395592 0.259052
0.811551 0.397196 0.335202
0.813235 0.398800 0.411353
0.814919 0.400404 0.487503
0.816602 0.402009 0.563653
0.818286 0.403613 0.639803
0.819970 0.405217 0.715953
0.823179 0.497155 0.120126
0.824862 0.498759 0.196276
0.826546 0.500363 0.272427
0.828230 0.501968 0.348577
0.829913 0.503572 0.424727
0.831597 0.505176 0.500877
0.833281 0.506780 0.577027
0.834965 0.508385 0.653177
0.836648 0.509989 0.729327
0.839857 0.601927 0.133501
0.841541 0.603531 0.209651
0.843225 0.605135 0.285801
0.844908 0.606739 0.361951
0.846592 0.608344 0.438101
0.848276 0.609948 0.514251
0.849959 0.611552 0.590401
0.851643 0.613157 0.666552
0.853327 0.614761 0.742702
0.856536 0.706698 0.146875
0.858219 0.708303 0.223025
0.859903 0.709907 0.299175
0.861587 0.711511 0.375325
0.863270 0.713115 0.451475
0.864954 0.714720 0.527625
0.866638 0.716324 0.603776
0.868322 0.717928 0.679926
0.870005 0.719533 0.756076
0.873214 0.811470 0.160249
0.874898 0.813074 0.236399
0.876581 0.814679 0.312549
0.878265 0.816283 0.388699
0.879949 0.817887 0.464850
0.881633 0.819491 0.541000
0.883316 0.821096 0.617150
0.885000 0.822700 0.693300
0.886684 0.824304 0.769450
0.889893 0.916242 0.173623
0.891576 0.917846 0.249773
0.893260 0.919450 0.325924
0.894944 0.921055 0.402074
0.896627 0.922659 0.478224
0.898311 0.924263 0.554374
0.899995 0.925867 0.630524
0.901678 0.927472 0.706674
0.903362 0.929076 0.782824
0.854703 0.082792 0.070605
0.856386 0.084396 0.146755
0.858070 0.086000 0.222905
0.859754 0.087605 0.299055
0.861437 0.089209 0.375206
0.863121 0.090813 0.451356
0.864805 0.092417 0.527506
0.866489 0.094022 0.603656
0.868172 0.095626 0.679806
0.871381 0.187564 0.083979
0.873065 0.189168 0.160129
0.874749 0.190772 0.236279
0.876432 0.192376 0.312430
0.878116 0.193981 0.388580
0.879800 0.195585 0.464730
0.881483 0.197189 0.540880
0.883167 0.198794 0.617030
0.884851 0.200398 0.693180
0.888060 0.292335 0.097353
0.889743 0.293940 0.173504
0.891427 0.295544 0.249654
0.893111 0.297148 0.325804
0.894794 0.298752 0.401954
0.896478 0.300357 0.478104
0.898162 0.301961 0.554254
0.899846 0.303565 0.630404
0.901529 0.305170 0.706555
0.904738 0.397107 0.110728
0.906422 0.398711 0.186878
0.908105 0.400316 0.263028
0.909789 0.401920 0.339178
0.911473 0.403524 0.415328
0.913157 0.405128 0.491478
0.914840 0.406733 0.567629
0.916524 0.408337 0.643779
0.918208 0.409941 0.719929
0.921417 0.501879 0.124102
0.923100 0.503483 0.200252
0.924784 0.505087 0.276402
0.926468 0.506692 0.352552
0.928151 0.508296 0.428702
0.929835 0.509900 0.504853
0.931519 0.511504 0.581003
0.933202 0.513109 0.657153
0.934886 0.514713 0.733303
0.938095 0.606650 0.137476
0.939779 0.608255 0.213626
0.941462 0.609859 0.289776
0.943146 0.611463 0.365927
0.944830 0.613068 0.442077
0.946513 0.614672 0.518227
0.948197 0.616276 0.594377
0.949881 0.617880 0.670527
0.951565 0.619485 0.746677
0.954773 0.711422 0.150850
0.956457 0.713027 0.227001
0.958141 0.714631 0.303151
0.959825 0.716235 0.379301
0.961508 0.717839 0.455451
0.963192 0.719444 0.531601
0.964876 0.721048 0.607751
0.966559 0.722652 0.683901
0.968243 0.724257 0.760052
0.971452 0.816194 0.164225
0.973136 0.817798 0.240375
0.974819 0.819403 0.316525
0.976503 0.821007 0.392675
0.978187 0.822611 0.468825
0.979870 0.824215 0.544975
0.981554 0.825820 0.621125
0.983238 0.827424 0.697276
0.984922 0.829028 0.773426
0.988130 0.920966 0.177599
0.989814 0.922570 0.253749
0.991498 0.924174 0.329899
0.993181 0.925779 0.406049
0.994865 0.927383 0.482199
0.996549 0.928987 0.558350
0.998233 0.930591 0.634500
0.999916 0.932196 0.710650
1.000000 0.933800 0.786800
