luts/warm_vintage.cube
TITLE "Warm Vintage"
LUT_3D_SIZE 5
0.068800 0.045000 0.038800
0.072167 0.048209 0.191100
0.075535 0.051417 0.343401
0.078902 0.054626 0.495701
0.082270 0.057834 0.648001
0.102157 0.254543 0.065548
0.105524 0.257752 0.217849
0.108892 0.260961 0.370149
0.112259 0.264169 0.522449
0.115627 0.267378 0.674750
0.135514 0.464087 0.092297
0.138881 0.467296 0.244597
0.142249 0.470504 0.396898
0.145616 0.473713 0.549198
0.148983 0.476921 0.701498
0.168871 0.673630 0.119045
0.172238 0.676839 0.271346
0.175606 0.680048 0.423646
0.178973 0.683256 0.575946
0.182340 0.686465 0.728247
0.202228 0.883174 0.145794
0.205595 0.886383 0.298094
0.208963 0.889591 0.450394
0.212330 0.892800 0.602695
0.215697 0.896008 0.754995
0.265276 0.054448 0.046751
0.268643 0.057657 0.199052
0.272010 0.060865 0.351352
0.275378 0.064074 0.503652
0.278745 0.067282 0.655952
0.298633 0.263991 0.073500
0.302000 0.267200 0.225800
0.305367 0.270409 0.378100
0.308735 0.273617 0.530401
0.312102 0.276826 0.682701
0.331990 0.473535 0.100248
0.335357 0.476743 0.252548
0.338724 0.479952 0.404849
0.342092 0.483161 0.557149
0.345459 0.486369 0.709449
0.365346 0.683078 0.126997
0.368714 0.686287 0.279297
0.372081 0.689496 0.431597
0.375449 0.692704 0.583898
0.378816 0.695913 0.736198
0.398703 0.892622 0.153745
0.402071 0.895830 0.306045
0.405438 0.899039 0.458346
0.408806 0.902248 0.610646
0.412173 0.905456 0.762946
0.461751 0.063896 0.054702
0.465119 0.067104 0.207003
0.468486 0.070313 0.359303
0.471854 0.073522 0.511603
0.475221 0.076730 0.663904
0.495108 0.273439 0.081451
0.498476 0.276648 0.233751
0.501843 0.279857 0.386052
0.505210 0.283065 0.538352
0.508578 0.286274 0.690652
0.528465 0.482983 0.108199
0.531833 0.486191 0.260500
0.535200 0.489400 0.412800
0.538567 0.492609 0.565100
0.541935 0.495817 0.717401
0.561822 0.692526 0.134948
0.565190 0.695735 0.287248
0.568557 0.698943 0.439548
0.571924 0.702152 0.591849
0.575292 0.705361 0.744149
0.595179 0.902070 0.161696
0.598546 0.905278 0.313997
0.601914 0.908487 0.466297
0.605281 0.911696 0.618597
0.608649 0.914904 0.770898
0.658227 0.073344 0.062654
0.661594 0.076552 0.214954
0.664962 0.079761 0.367254
0.668329 0.082970 0.519555
0.671697 0.086178 0.671855
0.691584 0.282887 0.089402
0.694951 0.286096 0.241702
0.698319 0.289304 0.394003
0.701686 0.292513 0.546303
0.705054 0.295722 0.698603
0.724941 0.492431 0.116151
0.728308 0.495639 0.268451
0.731676 0.498848 0.420751
0.735043 0.502057 0.573052
0.738410 0.505265 0.725352
0.758298 0.701974 0.142899
0.761665 0.705183 0.295199
0.765033 0.708391 0.447500
0.768400 0.711600 0.599800
0.771767 0.714809 0.752100
0.791655 0.911518 0.169648
0.795022 0.914726 0.321948
0.798390 0.917935 0.474248
0.801757 0.921143 0.626548
0.805124 0.924352 0.778849
0.854703 0.082792 0.070605
0.858070 0.086000 0.222905
0.861437 0.089209 0.375206
0.864805 0.092417 0.527506
0.868172 0.095626 0.679806
0.888060 0.292335 0.097353
0.891427 0.295544 0.249654
0.894794 0.298752 0.401954
0.898162 0.301961 0.554254
0.901529 0.305170 0.706555
0.921417 0.501879 0.124102
0.924784 0.505087 0.276402
0.928151 0.508296 0.428702
0.931519 0.511504 0.581003
0.934886 0.514713 0.733303
0.954773 0.711422 0.150850
0.958141 0.714631 0.303151
0.961508 0.717839 0.455451
0.964876 0.721048 0.607751
0.968243 0.724257 0.760052
0.988130 0.920966 0.177599
0.991498 0.924174 0.329899
0.994865 0.927383 0.482199
0.998233 0.930591 0.634500
1.000000 0.933800 0.786800
