luts/warm_vintage.cube
TITLE "Warm Vintage"
LUT_3D_SIZE 17
0.068800 0.045000 0.038800
0.069642 0.045802 0.076875
0.070484 0.046604 0.114950
0.071326 0.047406 0.153025
0.072167 0.048209 0.191100
0.073009 0.049011 0.229175
0.073851 0.049813 0.267250
0.074693 0.050615 0.305325
0.075535 0.051417 0.343401
0.076377 0.052219 0.381476
0.077219 0.053021 0.419551
0.078060 0.053824 0.457626
0.078902 0.054626 0.495701
0.079744 0.055428 0.533776
0.080586 0.056230 0.571851
0.081428 0.057032 0.609926
0.082270 0.057834 0.648001
0.077139 0.097386 0.045487
0.077981 0.098188 0.083562
0.078823 0.098990 0.121637
0.079665 0.099792 0.159712
0.080507 0.100594 0.197787
0.081348 0.101397 0.235862
0.082190 0.102199 0.273938
0.083032 0.103001 0.312013
0.083874 0.103803 0.350088
0.084716 0.104605 0.388163
0.085558 0.105407 0.426238
0.086400 0.106209 0.464313
0.087241 0.107012 0.502388
0.088083 0.107814 0.540463
0.088925 0.108616 0.578538
0.089767 0.109418 0.616613
0.090609 0.110220 0.654688
0.085478 0.149772 0.052174
0.086320 0.150574 0.090249
0.087162 0.151376 0.128324
0.088004 0.152178 0.166399
0.088846 0.152980 0.204475
0.089688 0.153782 0.242550
0.090530 0.154585 0.280625
0.091371 0.155387 0.318700
0.092213 0.156189 0.356775
0.093055 0.156991 0.394850
0.093897 0.157793 0.432925
0.094739 0.158595 0.471000
0.095581 0.159397 0.509075
0.096423 0.160200 0.547150
0.097264 0.161002 0.585225
0.098106 0.161804 0.623300
0.098948 0.162606 0.661375
0.093818 0.202158 0.058861
0.094660 0.202960 0.096936
0.095501 0.203762 0.135012
0.096343 0.204564 0.173087
0.097185 0.205366 0.211162
0.098027 0.206168 0.249237
0.098869 0.206970 0.287312
0.099711 0.207773 0.325387
0.100553 0.208575 0.363462
0.101394 0.209377 0.401537
0.102236 0.210179 0.439612
0.103078 0.210981 0.477687
0.103920 0.211783 0.515762
0.104762 0.212585 0.553837
0.105604 0.213388 0.591912
0.106445 0.214190 0.629987
0.107287 0.214992 0.668062
0.102157 0.254543 0.065548
0.102999 0.255346 0.103624
0.103841 0.256148 0.141699
0.104682 0.256950 0.179774
0.105524 0.257752 0.217849
0.106366 0.258554 0.255924
0.107208 0.259356 0.293999
0.108050 0.260158 0.332074
0.108892 0.260961 0.370149
0.109734 0.261763 0.408224
0.110575 0.262565 0.446299
0.111417 0.263367 0.484374
0.112259 0.264169 0.522449
0.113101 0.264971 0.560524
0.113943 0.265773 0.598599
0.114785 0.266576 0.636675
0.115627 0.267378 0.674750
0.110496 0.306929 0.072236
0.111338 0.307732 0.110311
0.112180 0.308534 0.148386
0.113022 0.309336 0.186461
0.113864 0.310138 0.224536
0.114705 0.310940 0.262611
0.115547 0.311742 0.300686
0.116389 0.312544 0.338761
0.117231 0.313346 0.376836
0.118073 0.314149 0.414911
0.118915 0.314951 0.452986
0.119757 0.315753 0.491061
0.120598 0.316555 0.529136
0.121440 0.317357 0.567212
0.122282 0.318159 0.605287
0.123124 0.318961 0.643362
0.123966 0.319764 0.681437
0.118835 0.359315 0.078923
0.119677 0.360117 0.116998
0.120519 0.360920 0.155073
0.121361 0.361722 0.193148
0.122203 0.362524 0.231223
0.123045 0.363326 0.269298
0.123887 0.364128 0.307373
0.124728 0.364930 0.345448
0.125570 0.365732 0.383523
0.126412 0.366535 0.421598
0.127254 0.367337 0.459673
0.128096 0.368139 0.497748
0.128938 0.368941 0.535824
0.129779 0.369743 0.573899
0.130621 0.370545 0.611974
0.131463 0.371347 0.650049
0.132305 0.372150 0.688124
0.127175 0.411701 0.085610
0.128016 0.412503 0.123685
0.128858 0.413305 0.161760
0.129700 0.414108 0.199835
0.130542 0.414910 0.237910
0.131384 0.415712 0.275985
0.132226 0.416514 0.314060
0.133068 0.417316 0.352135
0.133909 0.418118 0.390210
0.134751 0.418920 0.428285
0.135593 0.419723 0.466361
0.136435 0.420525 0.504436
0.137277 0.421327 0.542511
0.138119 0.422129 0.580586
0.138961 0.422931 0.618661
0.139802 0.423733 0.656736
0.140644 0.424535 0.694811
0.135514 0.464087 0.092297
0.136356 0.464889 0.130372
0.137198 0.465691 0.168447
0.138039 0.466493 0.206522
0.138881 0.467296 0.244597
0.139723 0.468098 0.282672
0.140565 0.468900 0.320747
0.141407 0.469702 0.358822
0.142249 0.470504 0.396898
0.143091 0.471306 0.434973
0.143932 0.472108 0.473048
0.144774 0.472911 0.511123
0.145616 0.473713 0.549198
0.146458 0.474515 0.587273
0.147300 0.475317 0.625348
0.148142 0.476119 0.663423
0.148983 0.476921 0.701498
0.143853 0.516473 0.098984
0.144695 0.517275 0.137059
0.145537 0.518077 0.175134
0.146379 0.518879 0.213209
0.147220 0.519681 0.251284
0.148062 0.520484 0.289359
0.148904 0.521286 0.327434
0.149746 0.522088 0.365510
0.150588 0.522890 0.403585
0.151430 0.523692 0.441660
0.152272 0.524494 0.479735
0.153113 0.525296 0.517810
0.153955 0.526099 0.555885
0.154797 0.526901 0.593960
0.155639 0.527703 0.632035
0.156481 0.528505 0.670110
0.157323 0.529307 0.708185
0.152192 0.568859 0.105671
0.153034 0.569661 0.143746
0.153876 0.570463 0.181821
0.154718 0.571265 0.219896
0.155560 0.572067 0.257971
0.156402 0.572869 0.296047
0.157243 0.573672 0.334122
0.158085 0.574474 0.372197
0.158927 0.575276 0.410272
0.159769 0.576078 0.448347
0.160611 0.576880 0.486422
0.161453 0.577682 0.524497
0.162295 0.578484 0.562572
0.163136 0.579287 0.600647
0.163978 0.580089 0.638722
0.164820 0.580891 0.676797
0.165662 0.581693 0.714872
0.160532 0.621245 0.112358
0.161373 0.622047 0.150433
0.162215 0.622849 0.188508
0.163057 0.623651 0.226584
0.163899 0.624453 0.264659
0.164741 0.625255 0.302734
0.165583 0.626057 0.340809
0.166425 0.626860 0.378884
0.167266 0.627662 0.416959
0.168108 0.628464 0.455034
0.168950 0.629266 0.493109
0.169792 0.630068 0.531184
0.170634 0.630870 0.569259
0.171476 0.631672 0.607334
0.172317 0.632475 0.645409
0.173159 0.633277 0.683484
0.174001 0.634079 0.721559
0.168871 0.673630 0.119045
0.169713 0.674433 0.157121
0.170554 0.675235 0.195196
0.171396 0.676037 0.233271
0.172238 0.676839 0.271346
0.173080 0.677641 0.309421
0.173922 0.678443 0.347496
0.174764 0.679245 0.385571
0.175606 0.680048 0.423646
0.176447 0.680850 0.461721
0.177289 0.681652 0.499796
0.178131 0.682454 0.537871
0.178973 0.683256 0.575946
0.179815 0.684058 0.614021
0.180657 0.684860 0.652096
0.181499 0.685663 0.690171
0.182340 0.686465 0.728247
0.177210 0.726016 0.125733
0.178052 0.726818 0.163808
0.178894 0.727621 0.201883
0.179736 0.728423 0.239958
0.180577 0.729225 0.278033
0.181419 0.730027 0.316108
0.182261 0.730829 0.354183
0.183103 0.731631 0.392258
0.183945 0.732433 0.430333
0.184787 0.733236 0.468408
0.185629 0.734038 0.506483
0.186470 0.734840 0.544558
0.187312 0.735642 0.582633
0.188154 0.736444 0.620708
0.188996 0.737246 0.658784
0.189838 0.738048 0.696859
0.190680 0.738851 0.734934
0.185549 0.778402 0.132420
0.186391 0.779204 0.170495
0.187233 0.780006 0.208570
0.188075 0.780809 0.246645
0.188917 0.781611 0.284720
0.189759 0.782413 0.322795
0.190600 0.783215 0.360870
0.191442 0.784017 0.398945
0.192284 0.784819 0.437020
0.193126 0.785621 0.475095
0.193968 0.786424 0.513170
0.194810 0.787226 0.551245
0.195651 0.788028 0.589321
0.196493 0.788830 0.627396
0.197335 0.789632 0.665471
0.198177 0.790434 0.703546
0.199019 0.791236 0.741621
0.193888 0.830788 0.139107
0.194730 0.831590 0.177182
0.195572 0.832392 0.215257
0.196414 0.833195 0.253332
0.197256 0.833997 0.291407
0.198098 0.834799 0.329482
0.198940 0.835601 0.367557
0.199781 0.836403 0.405632
0.200623 0.837205 0.443707
0.201465 0.838007 0.481782
0.202307 0.838810 0.519857
0.203149 0.839612 0.557933
0.203991 0.840414 0.596008
0.204833 0.841216 0.634083
0.205674 0.842018 0.672158
0.206516 0.842820 0.710233
0.207358 0.843622 0.748308
0.202228 0.883174 0.145794
0.203070 0.883976 0.183869
0.203911 0.884778 0.221944
0.204753 0.885580 0.260019
0.205595 0.886383 0.298094
0.206437 0.887185 0.336169
0.207279 0.887987 0.374244
0.208121 0.888789 0.412319
0.208963 0.889591 0.450394
0.209804 0.890393 0.488470
0.210646 0.891195 0.526545
0.211488 0.891998 0.564620
0.212330 0.892800 0.602695
0.213172 0.893602 0.640770
0.214014 0.894404 0.678845
0.214855 0.895206 0.716920
0.215697 0.896008 0.754995
0.117919 0.047362 0.040788
0.118761 0.048164 0.078863
0.119603 0.048966 0.116938
0.120444 0.049768 0.155013
0.121286 0.050571 0.193088
0.122128 0.051373 0.231163
0.122970 0.052175 0.269238
0.123812 0.052977 0.307313
0.124654 0.053779 0.345388
0.125496 0.054581 0.383463
0.126337 0.055383 0.421539
0.127179 0.056186 0.459614
0.128021 0.056988 0.497689
0.128863 0.057790 0.535764
0.129705 0.058592 0.573839
0.130547 0.059394 0.611914
0.131389 0.060196 0.649989
0.126258 0.099748 0.047475
0.127100 0.100550 0.085550
0.127942 0.101352 0.123625
0.128784 0.102154 0.161700
0.129626 0.102956 0.199775
0.130467 0.103759 0.237850
0.131309 0.104561 0.275925
0.132151 0.105363 0.314000
0.132993 0.106165 0.352075
0.133835 0.106967 0.390151
0.134677 0.107769 0.428226
0.135519 0.108571 0.466301
0.136360 0.109374 0.504376
0.137202 0.110176 0.542451
0.138044 0.110978 0.580526
0.138886 0.111780 0.618601
0.139728 0.112582 0.656676
0.134597 0.152134 0.054162
0.135439 0.152936 0.092237
0.136281 0.153738 0.130312
0.137123 0.154540 0.168387
0.137965 0.155342 0.206462
0.138807 0.156144 0.244537
0.139648 0.156947 0.282612
0.140490 0.157749 0.320688
0.141332 0.158551 0.358763
0.142174 0.159353 0.396838
0.143016 0.160155 0.434913
0.143858 0.160957 0.472988
0.144700 0.161759 0.511063
0.145541 0.162562 0.549138
0.146383 0.163364 0.587213
0.147225 0.164166 0.625288
0.148067 0.164968 0.663363
0.142937 0.204520 0.060849
0.143778 0.205322 0.098924
0.144620 0.206124 0.136999
0.145462 0.206926 0.175074
0.146304 0.207728 0.213149
0.147146 0.208530 0.251225
0.147988 0.209332 0.289300
0.148830 0.210135 0.327375
0.149671 0.210937 0.365450
0.150513 0.211739 0.403525
0.151355 0.212541 0.441600
0.152197 0.213343 0.479675
0.153039 0.214145 0.517750
0.153881 0.214947 0.555825
0.154723 0.215750 0.593900
0.155564 0.216552 0.631975
0.156406 0.217354 0.670050
0.151276 0.256905 0.067536
0.152118 0.257708 0.105611
0.152960 0.258510 0.143686
0.153801 0.259312 0.181761
0.154643 0.260114 0.219837
0.155485 0.260916 0.257912
0.156327 0.261718 0.295987
0.157169 0.262520 0.334062
0.158011 0.263323 0.372137
0.158853 0.264125 0.410212
0.159694 0.264927 0.448287
0.160536 0.265729 0.486362
0.161378 0.266531 0.524437
0.162220 0.267333 0.562512
0.163062 0.268135 0.600587
0.163904 0.268938 0.638662
0.164745 0.269740 0.676737
0.159615 0.309291 0.074223
0.160457 0.310093 0.112298
0.161299 0.310896 0.150374
0.162141 0.311698 0.188449
0.162982 0.312500 0.226524
0.163824 0.313302 0.264599
0.164666 0.314104 0.302674
0.165508 0.314906 0.340749
0.166350 0.315708 0.378824
0.167192 0.316511 0.416899
0.168034 0.317313 0.454974
0.168875 0.318115 0.493049
0.169717 0.318917 0.531124
0.170559 0.319719 0.569199
0.171401 0.320521 0.607274
0.172243 0.321323 0.645349
0.173085 0.322126 0.683425
0.167954 0.361677 0.080911
0.168796 0.362479 0.118986
0.169638 0.363282 0.157061
0.170480 0.364084 0.195136
0.171322 0.364886 0.233211
0.172164 0.365688 0.271286
0.173005 0.366490 0.309361
0.173847 0.367292 0.347436
0.174689 0.368094 0.385511
0.175531 0.368896 0.423586
0.176373 0.369699 0.461661
0.177215 0.370501 0.499736
0.178057 0.371303 0.537811
0.178898 0.372105 0.575886
0.179740 0.372907 0.613962
0.180582 0.373709 0.652037
0.181424 0.374511 0.690112
0.176294 0.414063 0.087598
0.177135 0.414865 0.125673
0.177977 0.415667 0.163748
0.178819 0.416470 0.201823
0.179661 0.417272 0.239898
0.180503 0.418074 0.277973
0.181345 0.418876 0.316048
0.182187 0.419678 0.354123
0.183028 0.420480 0.392198
0.183870 0.421282 0.430273
0.184712 0.422085 0.468348
0.185554 0.422887 0.506423
0.186396 0.423689 0.544498
0.187238 0.424491 0.582574
0.188079 0.425293 0.620649
0.188921 0.426095 0.658724
0.189763 0.426897 0.696799
0.184633 0.466449 0.094285
0.185475 0.467251 0.132360
0.186316 0.468053 0.170435
0.187158 0.468855 0.208510
0.188000 0.469658 0.246585
0.188842 0.470460 0.284660
0.189684 0.471262 0.322735
0.190526 0.472064 0.360810
0.191368 0.472866 0.398885
0.192209 0.473668 0.436960
0.193051 0.474470 0.475035
0.193893 0.475273 0.513111
0.194735 0.476075 0.551186
0.195577 0.476877 0.589261
0.196419 0.477679 0.627336
0.197261 0.478481 0.665411
0.198102 0.479283 0.703486
0.192972 0.518835 0.100972
0.193814 0.519637 0.139047
0.194656 0.520439 0.177122
0.195498 0.521241 0.215197
0.196339 0.522043 0.253272
0.197181 0.522846 0.291347
0.198023 0.523648 0.329422
0.198865 0.524450 0.367497
0.199707 0.525252 0.405572
0.200549 0.526054 0.443648
0.201391 0.526856 0.481723
0.202232 0.527658 0.519798
0.203074 0.528461 0.557873
0.203916 0.529263 0.595948
0.204758 0.530065 0.634023
0.205600 0.530867 0.672098
0.206442 0.531669 0.710173
0.201311 0.571221 0.107659
0.202153 0.572023 0.145734
0.202995 0.572825 0.183809
0.203837 0.573627 0.221884
0.204679 0.574429 0.259959
0.205520 0.575231 0.298034
0.206362 0.576034 0.336109
0.207204 0.576836 0.374184
0.208046 0.577638 0.412260
0.208888 0.578440 0.450335
0.209730 0.579242 0.488410
0.210572 0.580044 0.526485
0.211413 0.580846 0.564560
0.212255 0.581649 0.602635
0.213097 0.582451 0.640710
0.213939 0.583253 0.678785
0.214781 0.584055 0.716860
0.209650 0.623607 0.114346
0.210492 0.624409 0.152421
0.211334 0.625211 0.190496
0.212176 0.626013 0.228571
0.213018 0.626815 0.266646
0.213860 0.627617 0.304721
0.214702 0.628419 0.342797
0.215543 0.629222 0.380872
0.216385 0.630024 0.418947
0.217227 0.630826 0.457022
0.218069 0.631628 0.495097
0.218911 0.632430 0.533172
0.219753 0.633232 0.571247
0.220595 0.634034 0.609322
0.221436 0.634837 0.647397
0.222278 0.635639 0.685472
0.223120 0.636441 0.723547
0.217990 0.675992 0.121033
0.218832 0.676795 0.159108
0.219673 0.677597 0.197183
0.220515 0.678399 0.235258
0.221357 0.679201 0.273334
0.222199 0.680003 0.311409
0.223041 0.680805 0.349484
0.223883 0.681607 0.387559
0.224725 0.682410 0.425634
0.225566 0.683212 0.463709
0.226408 0.684014 0.501784
0.227250 0.684816 0.539859
0.228092 0.685618 0.577934
0.228934 0.686420 0.616009
0.229776 0.687222 0.654084
0.230617 0.688025 0.692159
0.231459 0.688827 0.730234
0.226329 0.728378 0.127720
0.227171 0.729180 0.165795
0.228013 0.729983 0.203871
0.228854 0.730785 0.241946
0.229696 0.731587 0.280021
0.230538 0.732389 0.318096
0.231380 0.733191 0.356171
0.232222 0.733993 0.394246
0.233064 0.734795 0.432321
0.233906 0.735598 0.470396
0.234747 0.736400 0.508471
0.235589 0.737202 0.546546
0.236431 0.738004 0.584621
0.237273 0.738806 0.622696
0.238115 0.739608 0.660771
0.238957 0.740410 0.698846
0.239799 0.741213 0.736921
0.234668 0.780764 0.134407
0.235510 0.781566 0.172483
0.236352 0.782368 0.210558
0.237194 0.783171 0.248633
0.238036 0.783973 0.286708
0.238877 0.784775 0.324783
0.239719 0.785577 0.362858
0.240561 0.786379 0.400933
0.241403 0.787181 0.439008
0.242245 0.787983 0.477083
0.243087 0.788786 0.515158
0.243929 0.789588 0.553233
0.244770 0.790390 0.591308
0.245612 0.791192 0.629383
0.246454 0.791994 0.667458
0.247296 0.792796 0.705534
0.248138 0.793598 0.743609
0.243007 0.833150 0.141095
0.243849 0.833952 0.179170
0.244691 0.834754 0.217245
0.245533 0.835556 0.255320
0.246375 0.836359 0.293395
0.247217 0.837161 0.331470
0.248059 0.837963 0.369545
0.248900 0.838765 0.407620
0.249742 0.839567 0.445695
0.250584 0.840369 0.483770
0.251426 0.841171 0.521845
0.252268 0.841974 0.559920
0.253110 0.842776 0.597995
0.253951 0.843578 0.636071
0.254793 0.844380 0.674146
0.255635 0.845182 0.712221
0.256477 0.845984 0.750296
0.251347 0.885536 0.147782
0.252188 0.886338 0.185857
0.253030 0.887140 0.223932
0.253872 0.887942 0.262007
0.254714 0.888745 0.300082
0.255556 0.889547 0.338157
0.256398 0.890349 0.376232
0.257240 0.891151 0.414307
0.258081 0.891953 0.452382
0.258923 0.892755 0.490457
0.259765 0.893557 0.528532
0.260607 0.894360 0.566607
0.261449 0.895162 0.604683
0.262291 0.895964 0.642758
0.263133 0.896766 0.680833
0.263974 0.897568 0.718908
0.264816 0.898370 0.756983
0.167038 0.049724 0.042776
0.167880 0.050526 0.080851
0.168722 0.051328 0.118926
0.169563 0.052130 0.157001
0.170405 0.052933 0.195076
0.171247 0.053735 0.233151
0.172089 0.054537 0.271226
0.172931 0.055339 0.309301
0.173773 0.056141 0.347376
0.174615 0.056943 0.385451
0.175456 0.057745 0.423526
0.176298 0.058548 0.461601
0.177140 0.059350 0.499676
0.177982 0.060152 0.537752
0.178824 0.060954 0.575827
0.179666 0.061756 0.613902
0.180507 0.062558 0.651977
0.175377 0.102110 0.049463
0.176219 0.102912 0.087538
0.177061 0.103714 0.125613
0.177903 0.104516 0.163688
0.178744 0.105318 0.201763
0.179586 0.106121 0.239838
0.180428 0.106923 0.277913
0.181270 0.107725 0.315988
0.182112 0.108527 0.354063
0.182954 0.109329 0.392138
0.183796 0.110131 0.430213
0.184637 0.110933 0.468289
0.185479 0.111736 0.506364
0.186321 0.112538 0.544439
0.187163 0.113340 0.582514
0.188005 0.114142 0.620589
0.188847 0.114944 0.658664
0.183716 0.154496 0.056150
0.184558 0.155298 0.094225
0.185400 0.156100 0.132300
0.186242 0.156902 0.170375
0.187084 0.157704 0.208450
0.187926 0.158506 0.246525
0.188767 0.159309 0.284600
0.189609 0.160111 0.322675
0.190451 0.160913 0.360750
0.191293 0.161715 0.398825
0.192135 0.162517 0.436901
0.192977 0.163319 0.474976
0.193819 0.164121 0.513051
0.194660 0.164924 0.551126
0.195502 0.165726 0.589201
0.196344 0.166528 0.627276
0.197186 0.167330 0.665351
0.192056 0.206882 0.062837
0.192897 0.207684 0.100912
0.193739 0.208486 0.138987
0.194581 0.209288 0.177062
0.195423 0.210090 0.215137
0.196265 0.210892 0.253212
0.197107 0.211694 0.291287
0.197948 0.212497 0.329362
0.198790 0.213299 0.367438
0.199632 0.214101 0.405513
0.200474 0.214903 0.443588
0.201316 0.215705 0.481663
0.202158 0.216507 0.519738
0.203000 0.217309 0.557813
0.203841 0.218112 0.595888
0.204683 0.218914 0.633963
0.205525 0.219716 0.672038
0.200395 0.259267 0.069524
0.201237 0.260070 0.107599
0.202078 0.260872 0.145674
0.202920 0.261674 0.183749
0.203762 0.262476 0.221824
0.204604 0.263278 0.259899
0.205446 0.264080 0.297975
0.206288 0.264882 0.336050
0.207130 0.265685 0.374125
0.207971 0.266487 0.412200
0.208813 0.267289 0.450275
0.209655 0.268091 0.488350
0.210497 0.268893 0.526425
0.211339 0.269695 0.564500
0.212181 0.270497 0.602575
0.213023 0.271300 0.640650
0.213864 0.272102 0.678725
0.208734 0.311653 0.076211
0.209576 0.312455 0.114286
0.210418 0.313258 0.152361
0.211260 0.314060 0.190436
0.212101 0.314862 0.228511
0.212943 0.315664 0.266587
0.213785 0.316466 0.304662
0.214627 0.317268 0.342737
0.215469 0.318070 0.380812
0.216311 0.318873 0.418887
0.217153 0.319675 0.456962
0.217994 0.320477 0.495037
0.218836 0.321279 0.533112
0.219678 0.322081 0.571187
0.220520 0.322883 0.609262
0.221362 0.323685 0.647337
0.222204 0.324488 0.685412
0.217073 0.364039 0.082898
0.217915 0.364841 0.120973
0.218757 0.365643 0.159048
0.219599 0.366446 0.197124
0.220441 0.367248 0.235199
0.221282 0.368050 0.273274
0.222124 0.368852 0.311349
0.222966 0.369654 0.349424
0.223808 0.370456 0.387499
0.224650 0.371258 0.425574
0.225492 0.372061 0.463649
0.226334 0.372863 0.501724
0.227175 0.373665 0.539799
0.228017 0.374467 0.577874
0.228859 0.375269 0.615949
0.229701 0.376071 0.654024
0.230543 0.376873 0.692099
0.225412 0.416425 0.089585
0.226254 0.417227 0.127661
0.227096 0.418029 0.165736
0.227938 0.418832 0.203811
0.228780 0.419634 0.241886
0.229622 0.420436 0.279961
0.230464 0.421238 0.318036
0.231305 0.422040 0.356111
0.232147 0.422842 0.394186
0.232989 0.423644 0.432261
0.233831 0.424446 0.470336
0.234673 0.425249 0.508411
0.235515 0.426051 0.546486
0.236357 0.426853 0.584561
0.237198 0.427655 0.622636
0.238040 0.428457 0.660712
0.238882 0.429259 0.698787
0.233752 0.468811 0.096273
0.234594 0.469613 0.134348
0.235435 0.470415 0.172423
0.236277 0.471217 0.210498
0.237119 0.472020 0.248573
0.237961 0.472822 0.286648
0.238803 0.473624 0.324723
0.239645 0.474426 0.362798
0.240487 0.475228 0.400873
0.241328 0.476030 0.438948
0.242170 0.476832 0.477023
0.243012 0.477635 0.515098
0.243854 0.478437 0.553173
0.244696 0.479239 0.591248
0.245538 0.480041 0.629324
0.246379 0.480843 0.667399
0.247221 0.481645 0.705474
0.242091 0.521197 0.102960
0.242933 0.521999 0.141035
0.243775 0.522801 0.179110
0.244616 0.523603 0.217185
0.245458 0.524405 0.255260
0.246300 0.525208 0.293335
0.247142 0.526010 0.331410
0.247984 0.526812 0.369485
0.248826 0.527614 0.407560
0.249668 0.528416 0.445635
0.250509 0.529218 0.483710
0.251351 0.530020 0.521785
0.252193 0.530823 0.559861
0.253035 0.531625 0.597936
0.253877 0.532427 0.636011
0.254719 0.533229 0.674086
0.255561 0.534031 0.712161
0.250430 0.573583 0.109647
0.251272 0.574385 0.147722
0.252114 0.575187 0.185797
0.252956 0.575989 0.223872
0.253798 0.576791 0.261947
0.254639 0.577593 0.300022
0.255481 0.578396 0.338097
0.256323 0.579198 0.376172
0.257165 0.580000 0.414247
0.258007 0.580802 0.452322
0.258849 0.581604 0.490398
0.259691 0.582406 0.528473
0.260532 0.583208 0.566548
0.261374 0.584011 0.604623
0.262216 0.584813 0.642698
0.263058 0.585615 0.680773
0.263900 0.586417 0.718848
0.258769 0.625969 0.116334
0.259611 0.626771 0.154409
0.260453 0.627573 0.192484
0.261295 0.628375 0.230559
0.262137 0.629177 0.268634
0.262979 0.629979 0.306709
0.263820 0.630781 0.344784
0.264662 0.631584 0.382859
0.265504 0.632386 0.420934
0.266346 0.633188 0.459010
0.267188 0.633990 0.497085
0.268030 0.634792 0.535160
0.268872 0.635594 0.573235
0.269713 0.636396 0.611310
0.270555 0.637199 0.649385
0.271397 0.638001 0.687460
0.272239 0.638803 0.725535
0.267109 0.678354 0.123021
0.267950 0.679157 0.161096
0.268792 0.679959 0.199171
0.269634 0.680761 0.237246
0.270476 0.681563 0.275321
0.271318 0.682365 0.313396
0.272160 0.683167 0.351471
0.273002 0.683969 0.389547
0.273843 0.684772 0.427622
0.274685 0.685574 0.465697
0.275527 0.686376 0.503772
0.276369 0.687178 0.541847
0.277211 0.687980 0.579922
0.278053 0.688782 0.617997
0.278895 0.689584 0.656072
0.279736 0.690387 0.694147
0.280578 0.691189 0.732222
0.275448 0.730740 0.129708
0.276290 0.731542 0.167783
0.277132 0.732345 0.205858
0.277973 0.733147 0.243933
0.278815 0.733949 0.282008
0.279657 0.734751 0.320084
0.280499 0.735553 0.358159
0.281341 0.736355 0.396234
0.282183 0.737157 0.434309
0.283025 0.737960 0.472384
0.283866 0.738762 0.510459
0.284708 0.739564 0.548534
0.285550 0.740366 0.586609
0.286392 0.741168 0.624684
0.287234 0.741970 0.662759
0.288076 0.742772 0.700834
0.288917 0.743575 0.738909
0.283787 0.783126 0.136395
0.284629 0.783928 0.174470
0.285471 0.784730 0.212545
0.286313 0.785533 0.250621
0.287154 0.786335 0.288696
0.287996 0.787137 0.326771
0.288838 0.787939 0.364846
0.289680 0.788741 0.402921
0.290522 0.789543 0.440996
0.291364 0.790345 0.479071
0.292206 0.791148 0.517146
0.293047 0.791950 0.555221
0.293889 0.792752 0.593296
0.294731 0.793554 0.631371
0.295573 0.794356 0.669446
0.296415 0.795158 0.707521
0.297257 0.795960 0.745596
0.292126 0.835512 0.143082
0.292968 0.836314 0.181157
0.293810 0.837116 0.219233
0.294652 0.837918 0.257308
0.295494 0.838721 0.295383
0.296336 0.839523 0.333458
0.297177 0.840325 0.371533
0.298019 0.841127 0.409608
0.298861 0.841929 0.447683
0.299703 0.842731 0.485758
0.300545 0.843533 0.523833
0.301387 0.844336 0.561908
0.302229 0.845138 0.599983
0.303070 0.845940 0.638058
0.303912 0.846742 0.676133
0.304754 0.847544 0.714208
0.305596 0.848346 0.752284
0.300466 0.887898 0.149770
0.301307 0.888700 0.187845
0.302149 0.889502 0.225920
0.302991 0.890304 0.263995
0.303833 0.891106 0.302070
0.304675 0.891909 0.340145
0.305517 0.892711 0.378220
0.306359 0.893513 0.416295
0.307200 0.894315 0.454370
0.308042 0.895117 0.492445
0.308884 0.895919 0.530520
0.309726 0.896721 0.568595
0.310568 0.897524 0.606670
0.311410 0.898326 0.644745
0.312251 0.899128 0.682821
0.313093 0.899930 0.720896
0.313935 0.900732 0.758971
0.216157 0.052086 0.044763
0.216999 0.052888 0.082839
0.217840 0.053690 0.120914
0.218682 0.054492 0.158989
0.219524 0.055295 0.197064
0.220366 0.056097 0.235139
0.221208 0.056899 0.273214
0.222050 0.057701 0.311289
0.222892 0.058503 0.349364
0.223733 0.059305 0.387439
0.224575 0.060107 0.425514
0.225417 0.060910 0.463589
0.226259 0.061712 0.501664
0.227101 0.062514 0.539739
0.227943 0.063316 0.577814
0.228785 0.064118 0.615889
0.229626 0.064920 0.653965
0.224496 0.104472 0.051451
0.225338 0.105274 0.089526
0.226180 0.106076 0.127601
